!!!!SEGMENT: pl-cz--iii-680--008_volckmer-augustin--missa-in-c-agnus-dei.krn
!!!cenid: 17xx:1171
!!!COM: Volckmer, Augustin
!!!COM-rismID: pe30020656
!!!CDT: 1755-~1820
!!!CNT:
!!!OPR: Missa in C
!!!OTL: Agnus Dei
!!!OMV: 008
!!!PDT:
!!!AGN: Sacred; Mass
!!!SMS-siglum: PL-CZ
!!!SMS-shelfmark: III-680
!!!SMS-shelfwork: 001-008 M
!!!SMS-variant:
!!!SMS-altvar:
!!!NIFC-rismSourceID: 300001393
!!!NIFC-islandoraID: pl-cz:40073
!!!URL-pdf-islandora: https://repozytorium.nifc.pl/islandora/object/pl-cz%3A40073/datastream/PDF/view
!!!URL-scan:
!!!ONB-nifc: UWAGA: części Mszy: Kyrie, Gloria, Credo, Et incarnatus, Et resurrexit, Sanctus,
!!!AIN: 1 alto 1 bass 1 clrno 2 cor 1 fagot 1 oboe 1 organ 1 soprn 1 tenor 1 timpa 1 viola 2 violn
!!!key: C
**kern	**fba	**dynam	**kern	**dynam	**kern	**dynam	**kern	**dynam	**kern	**text	**dynam	**kern	**text	**dynam	**kern	**text	**dynam	**kern	**text	**dynam	**kern	**dynam	**kern	**dynam	**kern	**dynam	**kern	**dynam	**kern	**dynam	**kern	**dynam
*part14	*part14	*part14	*part13	*part13	*part12	*part12	*part11	*part11	*part10	*part10	*part10	*part9	*part9	*part9	*part8	*part8	*part8	*part7	*part7	*part7	*part6	*part6	*part5	*part5	*part4	*part4	*part3	*part3	*part2	*part2	*part1	*part1
*staff14	*	*	*staff13	*	*staff12	*	*staff11	*	*staff10	*staff10	*	*staff9	*staff9	*	*staff8	*staff8	*	*staff7	*staff7	*	*staff6	*	*staff5	*	*staff4	*	*staff3	*	*staff2	*	*staff1	*
*I"Organo. e Fagothi	*	*	*I"Viola. perca pressivo.	*	*I"Violino Secundo.	*	*I"Violino Primo.	*	*I"Baſso.	*	*	*I"Tenore.	*	*	*I"Alto.	*	*	*I"Soprano	*	*	*I"Timpano.	*	*I"Clarino. Primo	*	*I"Corno Secondo	*	*I"Corno Primo	*	*I"Hoboi. Secundo	*	*I"Hoboi Primo.	*
*I'org and fag	*	*	*I'vla obl	*	*I'vl II	*	*I'vl I	*	*I'B	*	*	*I'T	*	*	*I'A	*	*	*I'S	*	*	*I'timp	*	*I'clno I	*	*I'cor II	*	*I'cor I	*	*I'ob II	*	*I'ob I	*
*ICklav	*	*	*ICstr	*	*ICstr	*	*ICstr	*	*ICvox	*	*	*ICvox	*	*	*ICvox	*	*	*ICvox	*	*	*ICidio	*	*ICbras	*	*ICbras	*	*ICbras	*	*ICww	*	*ICww	*
*Iorgan&Ifagot	*	*	*Iviola	*	*Ivioln	*	*Ivioln	*	*Ibass	*	*	*Itenor	*	*	*Ialto	*	*	*Isoprn	*	*	*Itimpa	*	*Iclrno	*	*Icor	*	*Icor	*	*Ioboe	*	*oboe	*
*clefF4	*	*	*clefC3	*	*clefG2	*	*clefG2	*	*clefF4	*	*	*clefC4	*	*	*clefC3	*	*	*clefC1	*	*	*clefF4	*	*clefG2	*	*clefG2	*	*clefG2	*	*clefG2	*	*clefG2	*
*	*	*	*	*	*	*	*	*	*	*	*	*	*	*	*	*	*	*	*	*	*	*	*	*	*Trd0c0	*	*Trd0c0	*	*	*	*	*
*k[]	*	*	*k[]	*	*k[]	*	*k[]	*	*k[]	*	*	*k[]	*	*	*k[]	*	*	*k[]	*	*	*k[]	*	*k[]	*	*k[]	*	*k[]	*	*k[]	*	*k[]	*
*C:	*	*	*C:	*	*C:	*	*C:	*	*C:	*	*	*C:	*	*	*C:	*	*	*C:	*	*	*C:	*	*C:	*	*C:	*	*C:	*	*C:	*	*C:	*
*M4/4	*	*	*M4/4	*	*M4/4	*	*M4/4	*	*M4/4	*	*	*M4/4	*	*	*M4/4	*	*	*M4/4	*	*	*M4/4	*	*M4/4	*	*M4/4	*	*M4/4	*	*M4/4	*	*M4/4	*
*met(c)	*	*	*met(c)	*	*met(c)	*	*met(c)	*	*met(c)	*	*	*met(c)	*	*	*met(c)	*	*	*met(c)	*	*	*met(c)	*	*met(c)	*	*met(c)	*	*met(c)	*	*met(c)	*	*met(c)	*
=1	=1	=1	=1	=1	=1	=1	=1	=1	=1	=1	=1	=1	=1	=1	=1	=1	=1	=1	=1	=1	=1	=1	=1	=1	=1	=1	=1	=1	=1	=1	=1	=1
!LO:TX:a:i:t=Solo	!	!	!LO:TX:t=P:problem:mixed beam	!	!	!	!LO:TX:t=P:problem:all\right	!	!LO:TX:a:t=3	!	!	!LO:TX:b:t=Agnus&colon;	!	!	!LO:TX:b:t=Agnus	!	!	!LO:TX:b:t=Agnus.	!	!	!LO:TX:b:t=Agnus	!	!LO:TX:b:t=Agnus Dei	!	!LO:TX:a:t=3	!	!LO:TX:a:t=3	!	!	!	!	!
!LO:TX:a:B:t=Tarde	!	!	!LO:TX:b:t=Agnus	!	!LO:TX:b:t=Agnus.	!	!LO:TX:b:t=Agnus.	!	!LO:TX:a:B:t=Tarde	!	!	!LO:TX:a:t=7	!	!	!LO:TX:a:t=7	!	!	!LO:TX:a:t=7	!	!	!LO:TX:a:B:t=Tarde	!	!LO:TX:a:B:t=Tarde	!	!LO:TX:b:t=Agnus	!	!LO:TX:b:t=Agnus	!	!LO:TX:a:B:t=Tarde	!	!LO:TX:b:t=Agnus	!
!LO:TX:b:t=Agnus&colon;	!	!LO:DY:b:t=pia:color=red	!LO:TX:a:B:t=Tarde.	!LO:DY:b:t=pia:color=red	!LO:TX:a:B:t=Tarde.	!	!LO:TX:a:B:t=Tarde	!	!	!	!	!LO:TX:a:B:t=Tarde	!	!	!LO:TX:a:B:t=Tarde	!	!	!LO:TX:a:B:t=Tarde	!	!	!LO:TX:a:t=20	!	!LO:TX:a:t=20	!	!LO:TX:a:B:t=Tarde in C.	!	!LO:TX:a:B:t=Tarde	!	!LO:TX:b:t=Agnus	!LO:DY:b:t=pia:color=red	!LO:TX:a:B:t=Tarde	!LO:DY:b:t=piano:color=red
8C/	.	p	16C/LL	p	16r	.	16r	.	0r	.	.	00r	.	.	00r	.	.	00r	.	.	00r	.	00r	.	0r	p	0r	.	2e/	p	2g/	p
!	!	!	!	!	!	!LO:DY:a:t=pia:color=red	!	!LO:DY::t=pia:color=red	!	!	!	!	!	!	!	!	!	!	!	!	!	!	!	!	!	!	!	!	!	!	!	!
.	.	.	(16c|\	.	16e|/LL	p	16g|/LL	p	.	.	.	.	.	.	.	.	.	.	.	.	.	.	.	.	.	.	.	.	.	.	.	.
8r	.	.	16c|\	.	(16e/	.	(16g/	.	.	.	.	.	.	.	.	.	.	.	.	.	.	.	.	.	.	.	.	.	.	.	.	.
.	.	.	16c|\JJ)	.	16c/JJ)	.	16e/JJ)	.	.	.	.	.	.	.	.	.	.	.	.	.	.	.	.	.	.	.	.	.	.	.	.	.
!	!	!	!LO:TX:t=P:problem:mixed beam	!	!	!	!	!	!	!	!	!	!	!	!	!	!	!	!	!	!	!	!	!	!	!	!	!	!	!	!	!
8C/	5 3	.	16C/LL	.	16r	.	16r	.	.	.	.	.	.	.	.	.	.	.	.	.	.	.	.	.	.	.	.	.	.	.	.	.
.	.	.	(16c|\	.	16e|/LL	.	16g|/LL	.	.	.	.	.	.	.	.	.	.	.	.	.	.	.	.	.	.	.	.	.	.	.	.	.
8r	.	.	16c|\	.	(16e/	.	(16g/	.	.	.	.	.	.	.	.	.	.	.	.	.	.	.	.	.	.	.	.	.	.	.	.	.
.	.	.	16c|\JJ)	.	16c/JJ)	.	16e/JJ)	.	.	.	.	.	.	.	.	.	.	.	.	.	.	.	.	.	.	.	.	.	.	.	.	.
8F\	x 3	.	(16F\LL	.	16r	.	16r	.	.	.	.	.	.	.	.	.	.	.	.	.	.	.	.	.	.	.	.	.	2f/	.	2a/	.
.	.	.	(16c|\)	.	16f|/LL	.	16a|/LL	.	.	.	.	.	.	.	.	.	.	.	.	.	.	.	.	.	.	.	.	.	.	.	.	.
8r	.	.	16c|\	.	(16f/	.	(16a/	.	.	.	.	.	.	.	.	.	.	.	.	.	.	.	.	.	.	.	.	.	.	.	.	.
.	.	.	16c|\JJ)	.	16c/JJ)	.	16f/JJ)	.	.	.	.	.	.	.	.	.	.	.	.	.	.	.	.	.	.	.	.	.	.	.	.	.
8F\	.	.	(16F\LL	.	16r	.	16r	.	.	.	.	.	.	.	.	.	.	.	.	.	.	.	.	.	.	.	.	.	.	.	.	.
.	.	.	16c\)	.	16f|/LL	.	16a|/LL	.	.	.	.	.	.	.	.	.	.	.	.	.	.	.	.	.	.	.	.	.	.	.	.	.
8r	.	.	16c|\	.	(16f/	.	(16a/	.	.	.	.	.	.	.	.	.	.	.	.	.	.	.	.	.	.	.	.	.	.	.	.	.
.	.	.	16c|\JJ	.	16c/JJ)	.	16f/JJ)	.	.	.	.	.	.	.	.	.	.	.	.	.	.	.	.	.	.	.	.	.	.	.	.	.
=2	=2	=2	=2	=2	=2	=2	=2	=2	=2	=2	=2	=2	=2	=2	=2	=2	=2	=2	=2	=2	=2	=2	=2	=2	=2	=2	=2	=2	=2	=2	=2	=2
*	*	*	*	*	*	*	*	*	*	*	*	*	*	*	*	*	*	*	*	*	*	*	*	*	*	*	*	*	*	*	*2\right	*
!	!	!	!	!	!	!	!	!	!	!	!	!	!	!	!	!	!	!	!	!	!	!	!	!	!	!	!	!	!	!LO:DY:a:color=red	!	!LO:DY:b:color=red
8G\	.	.	8G/	.	16r	.	16r	.	.	.	.	.	.	.	.	.	.	.	.	.	.	.	.	.	.	.	.	.	(2d/	f	(2b\	f
!	!	!	!	!	!	!LO:HP:a:t=cres:color=red	!	!LO:HP:b:t=cres:color=red	!	!	!	!	!	!	!	!	!	!	!	!	!	!	!	!	!	!	!	!	!	!	!	!
.	.	.	.	.	16g|/LL	<	16b|\LL	<	.	.	.	.	.	.	.	.	.	.	.	.	.	.	.	.	.	.	.	.	.	.	.	.
!	!	!LO:DY:b:color=red	!	!	!	!	!	!	!	!	!	!	!	!	!	!	!	!	!	!	!	!	!	!	!	!	!	!	!	!	!	!
8r	.	f	8r	.	(16g/	.	(16b\	.	.	.	.	.	.	.	.	.	.	.	.	.	.	.	.	.	.	.	.	.	.	.	.	.
.	.	.	.	.	16a/JJ)	.	16cc\JJ)	.	.	.	.	.	.	.	.	.	.	.	.	.	.	.	.	.	.	.	.	.	.	.	.	.
!	!	!	!LO:TX:t=P:problem:mixed beam	!LO:DY:b:color=red	!	!	!	!	!	!	!	!	!	!	!	!	!	!	!	!	!	!	!	!	!	!	!	!	!	!	!	!
8G\L	.	.	8G/L	f	(16b\LL	.	(16dd\LL	.	.	.	.	.	.	.	.	.	.	.	.	.	.	.	.	.	.	.	.	.	.	.	.	.
!	!	!	!	!	!	!LO:DY:b:t=fort:color=red	!	!LO:DY:b:t=fort:color=red	!	!	!	!	!	!	!	!	!	!	!	!	!	!	!	!	!	!	!	!	!	!	!	!
.	.	.	.	.	16cc\)	f	16ee\)	f	.	.	.	.	.	.	.	.	.	.	.	.	.	.	.	.	.	.	.	.	.	.	.	.
8GG/J	.	.	16b\L	.	16dd|\	.	16ff|\	.	.	.	.	.	.	.	.	.	.	.	.	.	.	.	.	.	.	.	.	.	.	.	.	.
.	.	.	16b\JJ	.	16dd|\JJ	.	16ff|\JJ	.	.	.	.	.	.	.	.	.	.	.	.	.	.	.	.	.	.	.	.	.	.	.	.	.
!LO:TX:t=P:problem:mixed beam	!	!LO:DY:b:t=pia:color=red	!	!LO:DY:b:t=pia:color=red	!	!LO:DY:b:t=pia:color=red	!no	!LO:DY:b:t=piano:color=red	!	!	!	!	!	!	!	!	!	!	!	!	!	!	!	!	!	!	!	!	!	!	!	!
8C\L	.	p	8g\L	p	8cc\L	p	16ff\KL	p	.	.	.	.	.	.	.	.	.	.	.	.	.	.	.	.	.	.	.	.	4e|/)	.	4cc|\)	.
.	.	.	.	.	.	.	(8ee\	.	.	.	.	.	.	.	.	.	.	.	.	.	.	.	.	.	.	.	.	.	.	.	.	.
8F\	.	.	8a\	.	8f/	.	.	.	.	.	.	.	.	.	.	.	.	.	.	.	.	.	.	.	.	.	.	.	.	.	.	.
.	.	.	.	.	.	.	8dd\	.	.	.	.	.	.	.	.	.	.	.	.	.	.	.	.	.	.	.	.	.	.	.	.	.
!	!	!	!	!	!	!	!	!	!	!	!	!	!	!	!	!	!	!	!	!	!	!	!	!	!	!	!	!	!	!LO:DY:b:color=red	!	!
8G\	4	.	8g\	.	8e/	.	.	.	.	.	.	.	.	.	.	.	.	.	.	.	.	.	.	.	.	.	.	.	4r	p	4r	.
.	.	.	.	.	.	.	8cc\	.	.	.	.	.	.	.	.	.	.	.	.	.	.	.	.	.	.	.	.	.	.	.	.	.
8GG/J	3	.	8g\J	.	8d/J	.	.	.	.	.	.	.	.	.	.	.	.	.	.	.	.	.	.	.	.	.	.	.	.	.	.	.
.	.	.	.	.	.	.	16b\Jk)	.	.	.	.	.	.	.	.	.	.	.	.	.	.	.	.	.	.	.	.	.	.	.	.	.
=3	=3	=3	=3	=3	=3	=3	=3	=3	=3	=3	=3	=3	=3	=3	=3	=3	=3	=3	=3	=3	=3	=3	=3	=3	=3	=3	=3	=3	=3	=3	=3	=3
!	!	!	!	!	!	!	!	!	!	!	!	!	!	!	!	!	!	!	!	!	!	!	!	!	!	!	!	!	!	!	!	!LO:DY:b:color=red
8C/	3	.	8g\	.	16r	.	16r	.	1r	.	.	.	.	.	.	.	.	.	.	.	.	.	.	.	1r	.	1r	.	8e|/	.	8cc|\	p
.	.	.	.	.	16e|/LL	.	16cc|\LL	.	.	.	.	.	.	.	.	.	.	.	.	.	.	.	.	.	.	.	.	.	.	.	.	.
8r	.	.	8r	.	(16f/	.	(16dd\	.	.	.	.	.	.	.	.	.	.	.	.	.	.	.	.	.	.	.	.	.	8r	.	8r	.
.	.	.	.	.	16g/JJ)	.	16ee\JJ)	.	.	.	.	.	.	.	.	.	.	.	.	.	.	.	.	.	.	.	.	.	.	.	.	.
!	!	!	!	!	!	!	!LO:LB:g=original	!	!	!	!	!	!	!	!	!	!	!	!	!	!	!	!	!	!	!	!	!	!	!	!	!
8C/	.	.	8g\	.	16r	.	16r	.	.	.	.	.	.	.	.	.	.	.	.	.	.	.	.	.	.	.	.	.	8e|/	.	8cc|\	.
.	.	.	.	.	16e|/LL	.	16cc|\LL	.	.	.	.	.	.	.	.	.	.	.	.	.	.	.	.	.	.	.	.	.	.	.	.	.
8r	.	.	8r	.	(16f/	.	(16dd\	.	.	.	.	.	.	.	.	.	.	.	.	.	.	.	.	.	.	.	.	.	8r	.	8r	.
.	.	.	.	.	16g/JJ)	.	16ee\JJ)	.	.	.	.	.	.	.	.	.	.	.	.	.	.	.	.	.	.	.	.	.	.	.	.	.
8C/L	.	.	8g\L	.	8G/L 8e	.	8cc|\L	.	.	.	.	.	.	.	.	.	.	.	.	.	.	.	.	.	.	.	.	.	8e|/L	.	8cc|\L	.
8C/J	.	.	8g\J	.	8G/J 8e	.	8cc|\J	.	.	.	.	.	.	.	.	.	.	.	.	.	.	.	.	.	.	.	.	.	8e|/J	.	8cc|\J	.
4C/	.	.	4g\	.	4G/ 4e	.	4G/ 4e 4cc	.	.	.	.	.	.	.	.	.	.	.	.	.	.	.	.	.	.	.	.	.	4e/	.	4cc\	.
!	!	!	!	!	!LO:LB:g=original	!	!	!	!	!	!	!	!	!	!	!	!	!	!	!	!	!	!	!	!	!	!	!	!	!	!	!
=4	=4	=4	=4	=4	=4	=4	=4	=4	=4	=4	=4	=4	=4	=4	=4	=4	=4	=4	=4	=4	=4	=4	=4	=4	=4	=4	=4	=4	=4	=4	=4	=4
!LO:TX:a:t=vox	!	!	!LO:TX:b:i:t=Dolce:color=red	!	!	!	!LO:TX:a:t=1	!	!LO:TX:b:i:t=Dolce:color=red:color=red	!	!	!	!	!	!	!	!	!	!	!	!	!	!	!	!	!LO:DY:b:t=pia:color=red	!	!LO:DY:b:t=pia:color=red	!LO:TX:a:t=3	!	!LO:TX:a:t=3	!
8C/L	.	.	4c\	.	4c/	.	1r	.	(4C/	A-	.	.	.	.	.	.	.	.	.	.	.	.	.	.	4c/	p	4g/	p	0r	.	0r	.
8CC/J	.	.	.	.	.	.	.	.	.	.	.	.	.	.	.	.	.	.	.	.	.	.	.	.	.	.	.	.	.	.	.	.
!	!	!	!	!	!LO:TX:a:i:t=Dolce:color=red	!LO:DY:b:t=pia:color=red	!	!	!	!	!	!	!	!	!	!	!	!	!	!	!	!	!	!	!LO:TX:b:i:t=vox:color=red	!	!	!	!	!	!	!
8r	.	.	(16e\LL	.	16cc\LL	p	.	.	16c\LL)	.	.	.	.	.	.	.	.	.	.	.	.	.	.	.	4r	.	4r	.	.	.	.	.
.	.	.	16d\)	.	(16b\	.	.	.	16B\JJ	.	.	.	.	.	.	.	.	.	.	.	.	.	.	.	.	.	.	.	.	.	.	.
!	!	!	!	!	!	!	!	!	!LO:TX:a:i:t=Solo	!	!	!	!	!	!	!	!	!	!	!	!	!	!	!	!	!	!	!	!	!	!	!
8C/	.	.	(16f\	.	16a\)	.	.	.	16A\LL	-gnus	.	.	.	.	.	.	.	.	.	.	.	.	.	.	.	.	.	.	.	.	.	.
.	.	.	16e\JJ)	.	16g\JJ	.	.	.	16G\JJ	.	.	.	.	.	.	.	.	.	.	.	.	.	.	.	.	.	.	.	.	.	.	.
!	!	!	!LO:LB:g=original	!	!	!	!	!	!	!	!	!	!	!	!	!	!	!	!	!	!	!	!	!	!	!	!LO:TX:b:i:t=vox:color=red	!	!	!	!	!
8r	.	.	16e\LL	.	16g/LL	.	.	.	16G\LL	De-	.	.	.	.	.	.	.	.	.	.	.	.	.	.	8g/	.	8dd\	.	.	.	.	.
.	.	.	16d\JJ	.	16f/JJ	.	.	.	16F\JJ	.	.	.	.	.	.	.	.	.	.	.	.	.	.	.	.	.	.	.	.	.	.	.
8GG/L	7 5	.	4d\	.	4f/	.	.	.	4F\	-i	.	.	.	.	.	.	.	.	.	.	.	.	.	.	4g/	.	4dd\	.	.	.	.	.
8BB/	.	.	.	.	.	.	.	.	.	.	.	.	.	.	.	.	.	.	.	.	.	.	.	.	.	.	.	.	.	.	.	.
8C/J	x 3	.	8c\	.	8e/	.	.	.	8E\	qui	.	.	.	.	.	.	.	.	.	.	.	.	.	.	8e/	.	8cc\	.	.	.	.	.
!LO:LB:g=original	!	!	!	!	!	!	!	!	!	!	!	!	!	!	!	!	!	!	!	!	!	!	!	!	!	!	!	!	!	!	!	!
=5	=5	=5	=5	=5	=5	=5	=5	=5	=5	=5	=5	=5	=5	=5	=5	=5	=5	=5	=5	=5	=5	=5	=5	=5	=5	=5	=5	=5	=5	=5	=5	=5
!	!	!	!	!	!	!	!LO:TX:b:i:t=vox:color=red	!	!	!	!	!	!	!	!	!	!	!	!	!	!	!	!	!	!	!	!	!	!	!	!	!
8F\L	.	.	8a\L	.	8f/L	.	(16ee\LL	.	16E\LL	tol-	.	0r	.	.	0r	.	.	0r	.	.	00r	.	00r	.	4r	.	4r	.	.	.	.	.
.	.	.	.	.	.	.	16dd\JJ)	.	(16D\JJ	.	.	.	.	.	.	.	.	.	.	.	.	.	.	.	.	.	.	.	.	.	.	.
8D\	.	.	16f\L	.	(16a/L	.	(32gg\LLL	.	32G\LLL)	.	.	.	.	.	.	.	.	.	.	.	.	.	.	.	.	.	.	.	.	.	.	.
.	.	.	.	.	.	.	32ff\	.	32F\	.	.	.	.	.	.	.	.	.	.	.	.	.	.	.	.	.	.	.	.	.	.	.
.	.	.	16a\JJ	.	32g/L	.	32ee\	.	32E\	.	.	.	.	.	.	.	.	.	.	.	.	.	.	.	.	.	.	.	.	.	.	.
.	.	.	.	.	32f/JJJ)	.	32dd\JJJ)	.	32D\JJJ	.	.	.	.	.	.	.	.	.	.	.	.	.	.	.	.	.	.	.	.	.	.	.
8G\	4	.	8g\L	.	8e/L	.	8cc\L	.	8C/	-lis	.	.	.	.	.	.	.	.	.	.	.	.	.	.	8cc\L	.	8ee\L	.	.	.	.	.
8GG/J	n	.	8g\J	.	8d/J	.	8b\J	.	8BB/	pec-	.	.	.	.	.	.	.	.	.	.	.	.	.	.	8g\J	.	8dd\J	.	.	.	.	.
4C/	.	.	4g\	.	16e/LL	.	4cc\	.	16C/LL	-ca-	.	.	.	.	.	.	.	.	.	.	.	.	.	.	4c/	.	4cc\	.	.	.	.	.
.	.	.	.	.	16G/	.	.	.	16GG/	.	.	.	.	.	.	.	.	.	.	.	.	.	.	.	.	.	.	.	.	.	.	.
.	.	.	.	.	16e/	.	.	.	16E/	.	.	.	.	.	.	.	.	.	.	.	.	.	.	.	.	.	.	.	.	.	.	.
.	.	.	.	.	16c/JJ	.	.	.	16C/JJ	.	.	.	.	.	.	.	.	.	.	.	.	.	.	.	.	.	.	.	.	.	.	.
!	!	!	!	!	!LO:TX:t=P:problem:mixed beam	!	!	!	!	!	!	!	!	!	!	!	!	!	!	!	!	!	!	!	!	!	!	!	!	!	!	!
8r	.	.	8r	.	16g/LL	.	8r	.	16G\LL	.	.	.	.	.	.	.	.	.	.	.	.	.	.	.	8r	.	8r	.	.	.	.	.
.	.	.	.	.	16e/	.	.	.	16E\JJ	.	.	.	.	.	.	.	.	.	.	.	.	.	.	.	.	.	.	.	.	.	.	.
16C\LL	.	.	16g\LL	.	16ee\	.	(16ccc\LL	.	16c\LL	-ta	.	.	.	.	.	.	.	.	.	.	.	.	.	.	8e/	.	8cc\	.	.	.	.	.
16F\JJ	.	.	16a\JJ	.	16ff\JJ	.	16aa\JJ)	.	16A\JJ	.	.	.	.	.	.	.	.	.	.	.	.	.	.	.	.	.	.	.	.	.	.	.
!	!	!	!	!	!	!	!	!	!LO:LB:g=original	!	!	!	!	!	!	!	!	!	!	!	!	!	!	!	!	!	!	!	!	!	!	!
=6	=6	=6	=6	=6	=6	=6	=6	=6	=6	=6	=6	=6	=6	=6	=6	=6	=6	=6	=6	=6	=6	=6	=6	=6	=6	=6	=6	=6	=6	=6	=6	=6
8G\L	.	.	8g\L	.	8ee|\L	.	8gg|\L	.	8G\L	mun-	.	.	.	.	.	.	.	.	.	.	.	.	.	.	4g/	.	4dd\	.	1r	.	1r	.
8GG/	.	.	8g\	.	(32ee\LL	.	(32gg\LL	.	32G\LL	.	.	.	.	.	.	.	.	.	.	.	.	.	.	.	.	.	.	.	.	.	.	.
.	.	.	.	.	32dd\	.	32ff\	.	32F\	.	.	.	.	.	.	.	.	.	.	.	.	.	.	.	.	.	.	.	.	.	.	.
.	.	.	.	.	32cc\)	.	32ee\	.	32E\	.	.	.	.	.	.	.	.	.	.	.	.	.	.	.	.	.	.	.	.	.	.	.
.	.	.	.	.	32dd\JJJ	.	32ff\JJJ)	.	32F\JJJ	.	.	.	.	.	.	.	.	.	.	.	.	.	.	.	.	.	.	.	.	.	.	.
.	.	.	.	.	.	.	.	.	8qqF/	.	.	.	.	.	.	.	.	.	.	.	.	.	.	.	.	.	.	.	.	.	.	.
8C/	.	.	8g\	.	8cc\	.	8ee\	.	8E\	-di	.	.	.	.	.	.	.	.	.	.	.	.	.	.	8cc\	.	8ee\	.	.	.	.	.
8E/J	.	.	8g\J	.	8r	.	8r	.	8r	.	.	.	.	.	.	.	.	.	.	.	.	.	.	.	8r	.	8r	.	.	.	.	.
4F\	5 3	.	4f\	.	8a/	.	16.dd\LL	.	16.D\LL	Qui	.	.	.	.	.	.	.	.	.	.	.	.	.	.	2r	.	2r	.	.	.	.	.
.	.	.	.	.	.	.	32ee\K	.	32E\JJk	.	.	.	.	.	.	.	.	.	.	.	.	.	.	.	.	.	.	.	.	.	.	.
.	.	.	.	.	8r	.	16.ff\	.	16.F\LL	tol-	.	.	.	.	.	.	.	.	.	.	.	.	.	.	.	.	.	.	.	.	.	.
.	.	.	.	.	.	.	32gg\JJk	.	32G\JJk	.	.	.	.	.	.	.	.	.	.	.	.	.	.	.	.	.	.	.	.	.	.	.
8r	.	.	8r	.	8a/	.	16.aa\LL	.	16.A\LL	-lis	.	.	.	.	.	.	.	.	.	.	.	.	.	.	.	.	.	.	.	.	.	.
.	.	.	.	.	.	.	32ff\K	.	32F\JJk	.	.	.	.	.	.	.	.	.	.	.	.	.	.	.	.	.	.	.	.	.	.	.
8F\	.	.	8f\	.	8r	.	16.dd\	.	16D/LL	pec-	.	.	.	.	.	.	.	.	.	.	.	.	.	.	.	.	.	.	.	.	.	.
.	.	.	.	.	.	.	.	.	16C/JJ	.	.	.	.	.	.	.	.	.	.	.	.	.	.	.	.	.	.	.	.	.	.	.
.	.	.	.	.	.	.	32cc\JJk	.	.	.	.	.	.	.	.	.	.	.	.	.	.	.	.	.	.	.	.	.	.	.	.	.
=7	=7	=7	=7	=7	=7	=7	=7	=7	=7	=7	=7	=7	=7	=7	=7	=7	=7	=7	=7	=7	=7	=7	=7	=7	=7	=7	=7	=7	=7	=7	=7	=7
8G\L	.	.	8g\L	.	8f/L	.	8b\L	.	8BB/	-ca-	.	1r	.	.	1r	.	.	1r	.	.	.	.	.	.	8g/L	.	8dd\L	.	2r	.	2r	.
8C/	.	.	8g\J	.	8e/J	.	8cc\J	.	8C/	-ta	.	.	.	.	.	.	.	.	.	.	.	.	.	.	8e/	.	8cc\	.	.	.	.	.
8BB/	.	.	8g\L	.	(16ee\LL	.	(16gg\LL	.	16G\LL	pec-	.	.	.	.	.	.	.	.	.	.	.	.	.	.	8g/	.	8dd\	.	.	.	.	.
.	.	.	.	.	16dd\)	.	16ff\)	.	16F\JJ	.	.	.	.	.	.	.	.	.	.	.	.	.	.	.	.	.	.	.	.	.	.	.
8C/J	.	.	8c\J	.	(16dd\	.	(16ff\	.	16F\	-ca-	.	.	.	.	.	.	.	.	.	.	.	.	.	.	8cc/J	.	8ee\J	.	.	.	.	.
.	.	.	.	.	16cc\JJ)	.	16ee\JJ)	.	16E\	-ta	.	.	.	.	.	.	.	.	.	.	.	.	.	.	.	.	.	.	.	.	.	.
!	!	!	!	!	!	!	!	!	!	!	!	!	!	!	!	!	!	!	!	!	!	!	!	!	!	!	!	!	!	!LO:DY:b:color=red	!	!
8G\L	4	.	8g\L	.	8cc\L	.	8ee|\L	.	8E\	mun-	.	.	.	.	.	.	.	.	.	.	.	.	.	.	8cc/L	.	8ee\L	.	4r	f	4r	.
!	!	!	!	!LO:DY:b:t=forto:color=red	!	!	!	!	!	!	!	!	!	!	!	!	!	!	!	!	!	!	!	!	!	!	!	!	!	!	!	!
8GG/J	3	.	8g\J	f	8b\J	.	8dd|\J	.	8D\	-di	.	.	.	.	.	.	.	.	.	.	.	.	.	.	8g/J	.	8dd\J	.	.	.	.	.
*clefC1	*	*	*	*	*	*	*	*	*	*	*	*	*	*	*	*	*	*	*	*	*	*	*	*	*	*	*	*	*	*	*	*
!LO:TX:a:i:t=Tutti	!	!	!	!	!	!LO:DY:b:t=forto:color=red	!	!	!	!	!	!	!	!	!	!	!	!	!	!	!	!	!	!	!	!	!	!	!	!	!	!LO:DY:b:color=red
8d|/L	.	.	8d|\L	.	4r	f	4r	.	4r	.	.	.	.	.	.	.	.	.	.	.	.	.	.	.	4r	.	8dd|\L	.	8d|/L	.	8dd|\L	f
8d|/J	.	.	8d|\J	.	.	.	.	.	.	.	.	.	.	.	.	.	.	.	.	.	.	.	.	.	.	.	8dd|\J	.	8d|/J	.	8dd|\J	.
*clefF4	*	*	*	*	*	*	*	*	*	*	*	*	*	*	*	*	*	*	*	*	*	*	*	*	*	*	*	*	*	*	*	*
!	!	!	!	!	!	!	!LO:LB:g=original	!	!	!	!	!	!	!	!	!	!	!	!	!	!	!	!	!	!	!	!	!	!	!	!	!
=8	=8	=8	=8	=8	=8	=8	=8	=8	=8	=8	=8	=8	=8	=8	=8	=8	=8	=8	=8	=8	=8	=8	=8	=8	=8	=8	=8	=8	=8	=8	=8	=8
!	!	!LO:DY:b:t=fort:color=red	!	!	!	!	!	!LO:DY:b:t=forto:color=red	!	!	!LO:DY:b:t=fort:color=red	!	!	!LO:DY:a:color=red	!	!	!LO:DY:b:color=red	!	!	!LO:DY:b:t=fort:color=red	!	!	!	!	!LO:TX:a:t=2	!	!	!	!	!	!	!
8F#X\	5 3	f	(16a\LL	.	16r	.	16r	f	4F#X\	Mi-	f	4d\	Mi-	f	4a\	Mi-	f	4cc\	Mi-	f	.	.	.	.	0r	.	4dd\	.	4a/	.	4cc\	.
.	.	.	16d\)	.	16a|/LL	.	16cc|\LL	.	.	.	.	.	.	.	.	.	.	.	.	.	.	.	.	.	.	.	.	.	.	.	.	.
8r	.	.	(16a\	.	(16a/	.	(16cc\	.	.	.	.	.	.	.	.	.	.	.	.	.	.	.	.	.	.	.	.	.	.	.	.	.
.	.	.	16d\JJ)	.	16f#X/JJ)	.	16a\JJ)	.	.	.	.	.	.	.	.	.	.	.	.	.	.	.	.	.	.	.	.	.	.	.	.	.
8G\	3	.	(16g\LL	.	16r	.	16r	.	4G\	-ſe-	.	4d\	-se-	.	4g\	-se-	.	4b\	-se-	.	.	.	.	.	.	.	4r	.	4g/	.	4b\	.
.	.	.	16d\)	.	16b|/LL	.	16dd|\LL	.	.	.	.	.	.	.	.	.	.	.	.	.	.	.	.	.	.	.	.	.	.	.	.	.
8r	.	.	(16g\	.	(16b/	.	(16dd\	.	.	.	.	.	.	.	.	.	.	.	.	.	.	.	.	.	.	.	.	.	.	.	.	.
.	.	.	16d\JJ)	.	16g/JJ)	.	16b\JJ)	.	.	.	.	.	.	.	.	.	.	.	.	.	.	.	.	.	.	.	.	.	.	.	.	.
!	!	!	!LO:TX:t=P:problem:kreska taktowa przed nutą	!LO:LB:g=original	!	!	!	!	!	!	!	!	!	!	!	!	!	!	!	!	!	!	!	!	!	!	!	!	!	!	!	!
8D\	#	.	(16a\LL	.	16r	.	16r	.	4D\	-re-	.	4d\	-re-	.	4a\	-re-	.	4ff#X\	-re-	.	.	.	.	.	.	.	2r	.	4a/	.	4ff#X\	.
.	.	.	16d\)	.	16cc|\LL	.	16aa|\LL	.	.	.	.	.	.	.	.	.	.	.	.	.	.	.	.	.	.	.	.	.	.	.	.	.
8r	.	.	(16a\	.	(16cc\	.	(16aa\	.	.	.	.	.	.	.	.	.	.	.	.	.	.	.	.	.	.	.	.	.	.	.	.	.
.	.	.	16d\JJ)	.	16a\JJ)	.	16ff#X\JJ)	.	.	.	.	.	.	.	.	.	.	.	.	.	.	.	.	.	.	.	.	.	.	.	.	.
8GG/	.	.	(16b\LL	.	16r	.	16r	.	4G\	-re	.	4d\	-re	.	4b\	-re	.	4gg\	-re	.	.	.	.	.	.	.	.	.	4b/	.	4gg\	.
.	.	.	16d\)	.	(16dd\LL	.	16bb|\LL	.	.	.	.	.	.	.	.	.	.	.	.	.	.	.	.	.	.	.	.	.	.	.	.	.
8r	.	.	(16b\	.	16b\)	.	(16gg\	.	.	.	.	.	.	.	.	.	.	.	.	.	.	.	.	.	.	.	.	.	.	.	.	.
.	.	.	16d\JJ)	.	16b|\JJ	.	16dd\JJ)	.	.	.	.	.	.	.	.	.	.	.	.	.	.	.	.	.	.	.	.	.	.	.	.	.
!	!	!	!LO:LB:g=original	!	!	!	!	!	!	!	!	!	!	!	!	!	!	!	!	!	!	!	!	!	!	!	!	!	!	!	!	!
=9	=9	=9	=9	=9	=9	=9	=9	=9	=9	=9	=9	=9	=9	=9	=9	=9	=9	=9	=9	=9	=9	=9	=9	=9	=9	=9	=9	=9	=9	=9	=9	=9
*	*	*	*	*	*	*	*	*	*	*ij	*	*	*ij	*	*	*ij	*	*	*ij	*	*	*	*	*	*	*	*	*	*	*	*	*
!	!	!LO:DY:b:t=pia:color=red	!	!LO:DY:b:t=pia:color=red	!	!LO:DY:b:t=pia:color=red	!	!LO:DY:b:t=pia:color=red	!	!	!LO:DY:b:t=pia:color=red	!	!	!LO:DY:a:color=red	!	!	!LO:DY:b:color=red	!	!	!LO:DY:b:t=pia:color=red	!	!	!	!	!	!	!LO:TX:a:t=1	!	!	!LO:DY:b:color=red	!	!LO:DY:b:color=red
8F#X\	5 3	p	(16a\LL	p	16r	p	16r	p	4F#X\	Mi-	p	4d\	Mi-	p	4a\	Mi-	p	4cc\	Mi-	p	00r	.	00r	.	.	.	1r	.	4a/	p	4cc\	p
.	.	.	16d\)	.	16a|/LL	.	16cc|\LL	.	.	.	.	.	.	.	.	.	.	.	.	.	.	.	.	.	.	.	.	.	.	.	.	.
8r	.	.	(16a\	.	(16a/	.	(16cc\	.	.	.	.	.	.	.	.	.	.	.	.	.	.	.	.	.	.	.	.	.	.	.	.	.
.	.	.	16d\JJ)	.	16f#X/JJ)	.	16a\JJ)	.	.	.	.	.	.	.	.	.	.	.	.	.	.	.	.	.	.	.	.	.	.	.	.	.
!LO:LB:g=original	!	!	!	!	!	!	!	!	!	!	!	!	!	!	!	!	!	!	!	!	!	!	!	!	!	!	!	!	!	!	!	!
8G\	.	.	(16g\LL	.	16r	.	16r	.	4G\	-ſe-	.	4d\	-se-	.	4g\	-se-	.	4b\	-se-	.	.	.	.	.	.	.	.	.	4g/	.	4b\	.
.	.	.	16d\)	.	16b|\LL	.	16dd|\LL	.	.	.	.	.	.	.	.	.	.	.	.	.	.	.	.	.	.	.	.	.	.	.	.	.
8r	.	.	(16g\	.	(16b\	.	(16dd\	.	.	.	.	.	.	.	.	.	.	.	.	.	.	.	.	.	.	.	.	.	.	.	.	.
.	.	.	16d\JJ)	.	16g\JJ)	.	16b\JJ)	.	.	.	.	.	.	.	.	.	.	.	.	.	.	.	.	.	.	.	.	.	.	.	.	.
8D\	.	.	(16a\LL	.	16r	.	16r	.	4D\	-re-	.	4d\	-re-	.	4a\	-re-	.	4ff#X\	-re-	.	.	.	.	.	.	.	.	.	4a/	.	4ff#X\	.
.	.	.	16d\)	.	16cc|\LL	.	16aa|\LL	.	.	.	.	.	.	.	.	.	.	.	.	.	.	.	.	.	.	.	.	.	.	.	.	.
8r	.	.	(16a\	.	(16cc\	.	(16aa\	.	.	.	.	.	.	.	.	.	.	.	.	.	.	.	.	.	.	.	.	.	.	.	.	.
.	.	.	16d\JJ)	.	16a\JJ)	.	16ff#X\JJ)	.	.	.	.	.	.	.	.	.	.	.	.	.	.	.	.	.	.	.	.	.	.	.	.	.
8GG/	.	.	(16b\LL	.	16r	.	16r	.	4G\	-re	.	4d\	-re	.	4b\	-re	.	4gg\	-re	.	.	.	.	.	.	.	.	.	4b/	.	4gg\	.
.	.	.	16d\)	.	(16dd\LL	.	16bb|\LL	.	.	.	.	.	.	.	.	.	.	.	.	.	.	.	.	.	.	.	.	.	.	.	.	.
8r	.	.	(16b\	.	16b\)	.	(16gg\	.	.	.	.	.	.	.	.	.	.	.	.	.	.	.	.	.	.	.	.	.	.	.	.	.
.	.	.	16d\JJ)	.	16b|\JJ	.	16dd\JJ)	.	.	.	.	.	.	.	.	.	.	.	.	.	.	.	.	.	.	.	.	.	.	.	.	.
*	*	*	*	*	*	*	*Xtuplet	*	*	*Xij	*	*	*	*	*	*Xij	*	*	*Xij	*	*	*	*	*	*	*	*	*	*	*	*	*
!	!	!	!	!	!	!	!	!	!LO:LB:g=original	!	!	!	!	!	!	!	!	!	!	!	!	!	!	!	!	!	!	!	!	!	!	!
=10	=10	=10	=10	=10	=10	=10	=10	=10	=10	=10	=10	=10	=10	=10	=10	=10	=10	=10	=10	=10	=10	=10	=10	=10	=10	=10	=10	=10	=10	=10	=10	=10
*	*	*	*	*	*	*	*	*	*	*	*	*2\right	*	*	*2\right	*	*	*	*	*	*	*	*	*	*	*	*	*	*	*	*2\right	*
!	!	!LO:DY:b:t=forto:color=red	!LO:TUP:a:problem:klamra łukowa	!LO:DY:b:t=forto:color=red	!LO:TUP:a:problem:klamra łukowa	!LO:DY:a:t=forto:color=red	!	!LO:DY:b:t=forto:color=red	!	!	!LO:DY:b:t=[f]ort:color=red	!	!	!LO:DY:a:color=red	!	!	!LO:DY:b:color=red	!	!	!LO:DY:b:color=red	!	!	!	!	!	!LO:DY:b:t=for:color=red	!	!LO:DY:b:t=fort:color=red	!	!LO:DY:b:color=red	!	!LO:DY:b:color=red
8r	.	f	24c\LL	f	24g/LL	f	24ee\LL	f	2C/	Mi-	f	2c\	Mi-	f	2g\	Mi-	f	2ee\	Mi-	f	.	.	.	.	8.c/L	f	8.g/L	f	2g/	f	2ee\	f
.	.	.	24c\	.	24g/	.	24ee\	.	.	.	.	.	.	.	.	.	.	.	.	.	.	.	.	.	.	.	.	.	.	.	.	.
.	.	.	24c\JJ	.	24g/JJ	.	24ee\JJ	.	.	.	.	.	.	.	.	.	.	.	.	.	.	.	.	.	.	.	.	.	.	.	.	.
!	!	!	!LO:TUP:a:problem:klamra łukowa, kropka zamiast numeru	!	!LO:TUP:a:problem:klamra łukowa	!	!	!	!	!	!	!	!	!	!	!	!	!	!	!	!	!	!	!	!	!	!	!	!	!	!	!
8C/L	3 5	.	24c\LL	.	24g/LL	.	24ee\LL	.	.	.	.	.	.	.	.	.	.	.	.	.	.	.	.	.	.	.	.	.	.	.	.	.
.	.	.	24c\	.	24g/	.	24ee\	.	.	.	.	.	.	.	.	.	.	.	.	.	.	.	.	.	.	.	.	.	.	.	.	.
.	.	.	.	.	.	.	.	.	.	.	.	.	.	.	.	.	.	.	.	.	.	.	.	.	16c/Jk	.	16g/Jk	.	.	.	.	.
.	.	.	24c\JJ	.	24g/JJ	.	24ee\JJ	.	.	.	.	.	.	.	.	.	.	.	.	.	.	.	.	.	.	.	.	.	.	.	.	.
*	*	*	*tremolo	*	*	*	*	*	*	*	*	*	*	*	*	*	*	*	*	*	*	*	*	*	*	*	*	*	*	*	*	*
*	*	*	*	*	*tremolo	*	*	*	*2\right	*	*	*	*	*	*	*	*	*	*	*	*	*	*	*	*	*	*	*	*	*	*	*
!	!	!	!LO:N:vis=4.	!	!LO:N:vis=4.	!	!	!	!	!	!	!	!	!	!	!	!	!	!	!	!	!	!	!	!	!	!	!	!	!	!	!
!	!	!	!LO:TUP:a:problem:klamra łukowa,kropka zamiast numeru	!	!LO:TUP:a:problem:klamra łukowa	!	!	!	!	!	!	!	!	!	!	!	!	!	!	!	!	!	!	!	!	!	!	!	!	!	!	!
8C/	.	.	24c\LL	.	24g/LL	.	24ee\LL	.	.	.	.	.	.	.	.	.	.	.	.	.	.	.	.	.	4c/	.	4g/	.	.	.	.	.
.	.	.	24c\	.	24g/	.	24ee\	.	.	.	.	.	.	.	.	.	.	.	.	.	.	.	.	.	.	.	.	.	.	.	.	.
.	.	.	24c\JJ	.	24g/JJ	.	24ee\JJ	.	.	.	.	.	.	.	.	.	.	.	.	.	.	.	.	.	.	.	.	.	.	.	.	.
!	!	!	!LO:N:vis=4.	!	!LO:N:vis=4.	!	!	!	!	!	!	!	!	!	!	!	!	!	!	!	!	!	!	!	!	!	!	!	!	!	!	!
!	!	!	!LO:TUP:a:problem:klamra łukowa,kropka zamiast numeru	!	!LO:TUP:a:problem:klamra łukowa	!	!	!	!	!	!	!	!	!	!	!	!	!	!	!	!	!	!	!	!	!	!	!	!	!	!	!
8C/J	.	.	24c\LL	.	24g/LL	.	24ee\LL	.	.	.	.	.	.	.	.	.	.	.	.	.	.	.	.	.	.	.	.	.	.	.	.	.
.	.	.	24c\	.	24g/	.	24ee\	.	.	.	.	.	.	.	.	.	.	.	.	.	.	.	.	.	.	.	.	.	.	.	.	.
.	.	.	24c\JJ	.	24g/JJ	.	24ee\JJ	.	.	.	.	.	.	.	.	.	.	.	.	.	.	.	.	.	.	.	.	.	.	.	.	.
!	!	!	!LO:N:vis=4.	!	!	!	!	!	!	!	!	!	!	!	!	!	!	!	!	!	!	!	!	!	!	!	!	!	!	!	!	!
*	*	*	*	*	*Xtremolo	*	*	*	*	*	*	*	*	*	*	*	*	*	*	*	*	*	*	*	*	*	*	*	*	*	*	*
!	!	!	!LO:TUP:a:problem:klamra łukowa,kropka zamiast numeru	!	!LO:TUP:a:problem:klamra łukowa	!	!LO:LB:g=original	!	!	!	!	!	!	!	!	!	!	!	!	!	!	!	!	!	!	!LO:LB:g=original	!	!	!	!	!	!
8r	.	.	24c\LL	.	24a/LL	.	24ff#X\LL	.	2c\	-se-	.	2c\	-se-	.	2a\	-se-	.	2ff#X\	-se-	.	.	.	.	.	2r	.	2r	.	2a/	.	2ff#X\	.
.	.	.	24c\	.	24a/	.	24ff#\	.	.	.	.	.	.	.	.	.	.	.	.	.	.	.	.	.	.	.	.	.	.	.	.	.
.	.	.	24c\JJ	.	24a/JJ	.	24ff#\JJ	.	.	.	.	.	.	.	.	.	.	.	.	.	.	.	.	.	.	.	.	.	.	.	.	.
*	*	*	*	*	*tremolo	*	*	*	*	*	*	*	*	*	*	*	*	*	*	*	*	*	*	*	*	*	*	*	*	*	*	*
!	!	!	!LO:N:vis=4.	!	!LO:N:vis=4.	!	!	!	!	!	!	!	!	!	!	!	!	!	!	!	!	!	!	!	!	!	!	!	!	!	!	!
!	!	!	!LO:TUP:a:problem:klamra łukowa,kropka zamiast numeru	!	!LO:TUP:a:problem:klamra łukowa	!	!	!	!	!	!	!	!	!	!	!	!	!	!	!	!	!	!	!	!	!	!	!	!	!	!	!
8C/L	4| 6	.	24c\LL	.	24a/LL	.	24ff#\LL	.	.	.	.	.	.	.	.	.	.	.	.	.	.	.	.	.	.	.	.	.	.	.	.	.
.	.	.	24c\	.	24a/	.	24ff#\	.	.	.	.	.	.	.	.	.	.	.	.	.	.	.	.	.	.	.	.	.	.	.	.	.
.	.	.	24c\JJ	.	24a/JJ	.	24ff#\JJ	.	.	.	.	.	.	.	.	.	.	.	.	.	.	.	.	.	.	.	.	.	.	.	.	.
!	!	!	!LO:N:vis=4.	!	!LO:N:vis=4.	!	!	!	!	!	!	!	!	!	!	!	!	!	!	!	!	!	!	!	!	!	!	!	!	!	!	!
!	!	!	!LO:TUP:a:problem:klamra łukowa,kropka zamiast numeru	!	!LO:TUP:a:problem:klamra łukowa	!	!	!	!	!	!	!	!	!	!	!	!	!	!	!	!	!	!	!	!	!	!	!	!	!	!	!
8C/	.	.	24c\LL	.	24a/LL	.	24ff#\LL	.	.	.	.	.	.	.	.	.	.	.	.	.	.	.	.	.	.	.	.	.	.	.	.	.
.	.	.	24c\	.	24a/	.	24ff#\	.	.	.	.	.	.	.	.	.	.	.	.	.	.	.	.	.	.	.	.	.	.	.	.	.
.	.	.	24c\JJ	.	24a/JJ	.	24ff#\JJ	.	.	.	.	.	.	.	.	.	.	.	.	.	.	.	.	.	.	.	.	.	.	.	.	.
!	!	!	!LO:N:vis=4.	!	!LO:N:vis=4.	!	!	!	!	!	!	!	!	!	!	!	!	!	!	!	!	!	!	!	!	!	!	!	!	!	!	!
!	!	!	!LO:TUP:a:problem:klamra łukowa,kropka zamiast numeru	!	!LO:TUP:a:problem:klamra łukowa	!	!	!	!	!	!	!	!	!	!	!	!	!	!	!	!	!	!	!	!	!	!	!	!	!	!	!
8C/J	.	.	24c\LL	.	24a/LL	.	24ff#\LL	.	.	.	.	.	.	.	.	.	.	.	.	.	.	.	.	.	.	.	.	.	.	.	.	.
.	.	.	24c\	.	24a/	.	24ff#\	.	.	.	.	.	.	.	.	.	.	.	.	.	.	.	.	.	.	.	.	.	.	.	.	.
.	.	.	24c\JJ	.	24a/JJ	.	24ff#\JJ	.	.	.	.	.	.	.	.	.	.	.	.	.	.	.	.	.	.	.	.	.	.	.	.	.
!	!	!	!	!	!	!	!	!	!	!	!	!	!	!	!	!	!	!	!	!	!	!	!	!	!LO:LB:g=original	!	!	!	!LO:LB:g=original	!	!	!
=11	=11	=11	=11	=11	=11	=11	=11	=11	=11	=11	=11	=11	=11	=11	=11	=11	=11	=11	=11	=11	=11	=11	=11	=11	=11	=11	=11	=11	=11	=11	=11	=11
!	!	!	!	!	!LO:N:vis=4.	!	!	!	!	!	!	!	!	!	!	!	!	!	!	!	!	!	!	!	!	!	!	!	!	!	!	!
!LO:TX:t=P:problem:mixed beam	!	!	!LO:N:vis=4.	!	!LO:TUP:a:problem:klamra łukowa	!	!	!	!	!	!	!	!	!	!	!	!	!	!	!	!	!	!	!	!	!	!	!	!	!	!	!
8BB/L	6	.	24B/LL	.	24dd\LL	.	24gg\LL	.	4B\	-re-	.	4d\	-re-	.	4b\	-re-	.	4gg\	-re-	.	.	.	.	.	2r	.	2r	.	4b\	.	4gg\	.
.	.	.	24B/	.	24dd\	.	24gg\	.	.	.	.	.	.	.	.	.	.	.	.	.	.	.	.	.	.	.	.	.	.	.	.	.
.	.	.	24B/JJ	.	24dd\JJ	.	24gg\JJ	.	.	.	.	.	.	.	.	.	.	.	.	.	.	.	.	.	.	.	.	.	.	.	.	.
!	!	!	!	!	!LO:N:vis=4.	!	!	!	!	!	!	!	!	!	!	!	!	!	!	!	!	!	!	!	!	!	!	!	!	!	!	!
!	!	!	!LO:N:vis=4.	!	!LO:TUP:a:problem:klamra łukowa	!	!	!	!	!	!	!	!	!	!	!	!	!	!	!	!	!	!	!	!	!	!	!	!	!	!	!
8GG/	.	.	24b\LL	.	24dd\LL	.	24gg\LL	.	.	.	.	.	.	.	.	.	.	.	.	.	.	.	.	.	.	.	.	.	.	.	.	.
.	.	.	24b\	.	24dd\	.	24gg\	.	.	.	.	.	.	.	.	.	.	.	.	.	.	.	.	.	.	.	.	.	.	.	.	.
.	.	.	24b\JJ	.	24dd\JJ	.	24gg\JJ	.	.	.	.	.	.	.	.	.	.	.	.	.	.	.	.	.	.	.	.	.	.	.	.	.
!	!	!	!	!	!LO:N:vis=4.	!	!	!	!	!	!	!	!	!	!	!	!	!	!	!	!	!	!	!	!	!	!	!	!	!	!	!
!	!	!	!LO:N:vis=4.	!	!LO:TUP:a:problem:klamra łukowa	!	!	!	!	!	!	!	!	!	!	!	!	!	!	!	!	!	!	!	!	!	!	!	!	!	!	!
8F#X\	5 3	.	24f#X\LL	.	24d/LL 24a	.	24ccc\LL	.	4F#X\	-re	.	4d\	-re	.	4a\	-re	.	4cc\	-re	.	.	.	.	.	.	.	.	.	4dd\	.	4ccc\	.
.	.	.	24f#X\	.	24d/ 24a	.	24ccc\	.	.	.	.	.	.	.	.	.	.	.	.	.	.	.	.	.	.	.	.	.	.	.	.	.
.	.	.	24f#X\JJ	.	24d/JJ 24a	.	24ccc\JJ	.	.	.	.	.	.	.	.	.	.	.	.	.	.	.	.	.	.	.	.	.	.	.	.	.
!	!	!	!	!	!LO:N:vis=4.	!	!	!	!	!	!	!	!	!	!	!	!	!	!	!	!	!	!	!	!	!	!	!	!	!	!	!
!	!	!	!LO:N:vis=4.	!	!LO:TUP:a:problem:klamra łukowa	!	!	!	!	!	!	!	!	!	!	!	!	!	!	!	!	!	!	!	!	!	!	!	!	!	!	!
8D\J	.	.	24f#\LL	.	24d/LL 24a	.	24ccc\LL	.	.	.	.	.	.	.	.	.	.	.	.	.	.	.	.	.	.	.	.	.	.	.	.	.
.	.	.	24f#\	.	24d/ 24a	.	24ccc\	.	.	.	.	.	.	.	.	.	.	.	.	.	.	.	.	.	.	.	.	.	.	.	.	.
.	.	.	24f#\JJ	.	24d/JJ 24a	.	24ccc\JJ	.	.	.	.	.	.	.	.	.	.	.	.	.	.	.	.	.	.	.	.	.	.	.	.	.
!	!	!	!	!	!LO:LB:g=original	!	!	!	!	!	!	!	!	!	!	!	!	!	!	!	!	!	!	!	!	!	!	!	!	!	!	!
!	!	!	!	!	!LO:N:vis=4.	!	!	!	!	!	!	!	!	!	!	!	!	!	!	!	!	!	!	!	!	!	!	!	!	!	!	!
!LO:TX:t=P:problem:mixed beam	!	!	!LO:N:vis=4.	!	!LO:TUP:a:problem:klamra łukowa	!	!	!	!	!	!	!	!	!	!	!	!	!	!	!	!	!	!	!	!	!	!	!	!	!	!LO:LB:g=original	!
*	*	*	*	*	*	*	*	*	*	*	*	*	*Xij	*	*	*	*	*	*	*	*	*	*	*	*	*	*	*	*	*	*	*
8G\L	3	.	24d\LL	.	24g/LL	.	24bb\LL	.	8G\L	no-	.	8d\L	no-	.	8b\L	no-	.	8dd\L	no-	.	.	.	.	.	8g\L	.	8dd\L	.	(8dd\L	.	8bb\L	.
.	.	.	24d\	.	24g/	.	24bb\	.	.	.	.	.	.	.	.	.	.	.	.	.	.	.	.	.	.	.	.	.	.	.	.	.
.	.	.	24d\JJ	.	24g/JJ	.	24bb\JJ	.	.	.	.	.	.	.	.	.	.	.	.	.	.	.	.	.	.	.	.	.	.	.	.	.
!	!	!	!	!	!LO:N:vis=4.	!	!	!	!	!	!	!	!	!	!	!	!	!	!	!	!	!	!	!	!	!	!	!	!	!	!	!
!	!	!	!LO:N:vis=4.	!	!LO:TUP:a:problem:klamra łukowa	!	!	!	!	!	!	!	!	!	!	!	!	!	!	!	!	!	!	!	!	!	!	!	!	!	!	!
8C\	6	.	24e\LL	.	24cc\LL	.	24aa\LL	.	8c\	.	.	8e\J	.	.	8a\	.	.	8cc\	.	.	.	.	.	.	8cc\	.	8ee\	.	8cc\	.	8aa\	.
.	.	.	24e\	.	24cc\	.	24aa\	.	.	.	.	.	.	.	.	.	.	.	.	.	.	.	.	.	.	.	.	.	.	.	.	.
.	.	.	24e\JJ	.	24cc\JJ	.	24aa\JJ	.	.	.	.	.	.	.	.	.	.	.	.	.	.	.	.	.	.	.	.	.	.	.	.	.
!	!	!	!	!	!LO:N:vis=4.	!	!	!	!	!	!	!	!	!	!	!	!	!	!	!	!	!	!	!	!	!	!	!	!	!	!	!
!	!	!	!LO:N:vis=4.	!	!LO:TUP:a:problem:klamra łukowa	!	!	!	!	!	!	!	!	!	!	!	!	!	!	!	!	!	!	!	!	!	!	!	!	!	!	!
8D\	4	.	24d\LL	.	24b\LL	.	24gg\LL	.	8d\	.	.	4d\	.	.	8g\	.	.	8b\	.	.	.	.	.	.	8dd\	.	8dd\	.	8b\	.	8gg\	.
.	.	.	24d\	.	24b\	.	24gg\	.	.	.	.	.	.	.	.	.	.	.	.	.	.	.	.	.	.	.	.	.	.	.	.	.
.	.	.	24d\JJ	.	24b\JJ	.	24gg\JJ	.	.	.	.	.	.	.	.	.	.	.	.	.	.	.	.	.	.	.	.	.	.	.	.	.
!	!	!	!	!	!LO:N:vis=4.	!	!	!	!	!	!	!	!	!	!	!	!	!	!	!	!	!	!	!	!	!	!	!	!	!	!	!
!	!	!	!LO:N:vis=4.	!	!LO:TUP:a:problem:klamra łukowa	!	!	!	!	!	!	!	!	!	!	!	!	!	!	!	!	!	!	!	!	!	!	!	!	!	!	!
8DD/J	#	.	24d\LL	.	24a\LL	.	24ff#X\LL	.	8D/J	.	.	.	.	.	8f#X\J	.	.	8a\J	.	.	.	.	.	.	8dd\J	.	8dd\J	.	8a\J)	.	8ff#X\J	.
.	.	.	24d\	.	24a\	.	24ff#\	.	.	.	.	.	.	.	.	.	.	.	.	.	.	.	.	.	.	.	.	.	.	.	.	.
.	.	.	24d\JJ	.	24a\JJ	.	24ff#\JJ	.	.	.	.	.	.	.	.	.	.	.	.	.	.	.	.	.	.	.	.	.	.	.	.	.
*	*	*	*Xtremolo	*	*Xtremolo	*	*	*	*	*	*	*	*	*	*	*	*	*	*	*	*	*	*	*	*	*	*	*	*	*	*	*
!	!	!	!LO:LB:g=original	!	!	!	!	!	!	!	!	!	!	!	!	!	!	!	!	!	!	!	!	!	!	!	!	!	!	!	!	!
=12	=12	=12	=12	=12	=12	=12	=12	=12	=12	=12	=12	=12	=12	=12	=12	=12	=12	=12	=12	=12	=12	=12	=12	=12	=12	=12	=12	=12	=12	=12	=12	=12
4GG/	.	.	4d\	.	8b/	.	(8gg\L	.	4G\	-bis	.	4d\	-bis	.	4g\	-bis	.	4g\	-bis	.	.	.	.	.	4g/	.	4dd\	.	8b/	.	4gg\	.
!	!	!	!	!	!	!	!	!LO:DY:b:t=piano:color=red	!	!	!	!	!	!	!	!	!	!	!	!	!	!	!	!	!	!	!	!	!	!LO:DY:b:color=red	!	!
.	.	.	.	.	4b/	.	8dd\)	p	.	.	.	.	.	.	.	.	.	.	.	.	.	.	.	.	.	.	.	.	4b/	pp	.	.
!	!	!	!	!LO:DY:b:t=pia:color=red	!	!	!	!	!	!	!	!	!	!	!	!	!	!	!	!	!	!	!	!	!	!	!	!	!	!	!	!
8r	.	.	8r	p	.	.	(8dd\	.	4r	.	.	4r	.	.	4r	.	.	4r	.	.	.	.	.	.	4r	.	4r	.	.	.	8r	.
!	!	!LO:DY:b:t=pia:color=red	!	!	!	!LO:DY:b:t=pia:color=red	!	!	!	!	!	!	!	!	!	!	!	!	!	!	!	!	!	!	!	!	!	!	!	!	!	!LO:DY:b:t=pia:color=red
8D\	#	p	8f#X\	.	8a/	p	8cc\J)	.	.	.	.	.	.	.	.	.	.	.	.	.	.	.	.	.	.	.	.	.	8a/	.	8ff#X\	p
8G\L	.	.	4f#\	.	(4a/	.	(4cc\	.	2r	.	.	2r	.	.	2r	.	.	2r	.	.	.	.	.	.	2r	.	2r	.	(4a/	.	(4ff#\	.
8D\	.	.	.	.	.	.	.	.	.	.	.	.	.	.	.	.	.	.	.	.	.	.	.	.	.	.	.	.	.	.	.	.
8GG/J	.	.	8g\	.	8g|/)	.	8b|\)	.	.	.	.	.	.	.	.	.	.	.	.	.	.	.	.	.	.	.	.	.	8g|/)	.	8gg|\)	.
8r	.	.	8r	.	8r	.	8r	.	.	.	.	.	.	.	.	.	.	.	.	.	.	.	.	.	.	.	.	.	8r	.	8r	.
!	!	!	!	!	!	!	!	!	!	!	!	!	!	!	!LO:LB:g=original	!	!	!LO:LB:g=original	!	!	!	!	!	!	!	!	!	!	!	!	!	!
=13	=13	=13	=13	=13	=13	=13	=13	=13	=13	=13	=13	=13	=13	=13	=13	=13	=13	=13	=13	=13	=13	=13	=13	=13	=13	=13	=13	=13	=13	=13	=13	=13
!LO:TX:b:i:t=Solo	!	!	!LO:TX:b:i:t=vox:color=red	!	!	!	!	!	!	!	!	!	!	!	!	!	!	!	!	!	!	!	!	!	!	!	!	!	!	!	!	!
!	!	!	!	!	!LO:TX:b:i:t=vox:color=red	!	!LO:TX:b:i:t=vox:color=red	!	!LO:TX:a:t=4	!	!	!LO:TX:b:i:t=Dolce:color=red:color=red	!	!	!LO:TX:a:t=4	!	!	!LO:TX:a:t=4	!	!	!	!	!	!	!LO:TX:a:t=3	!	!LO:TX:a:t=3	!	!LO:TX:a:t=3	!	!LO:TX:a:t=3	!
8G\L	.	.	8G/L	.	4g/	.	4g/	.	00r	.	.	(4G/	A-	.	00r	.	.	00r	.	.	00r	.	00r	.	0r	.	0r	.	0r	.	0r	.
8GG/J	.	.	8g\J	.	.	.	.	.	.	.	.	.	.	.	.	.	.	.	.	.	.	.	.	.	.	.	.	.	.	.	.	.
!	!	!	!	!	!	!	!LO:LB:g=original	!	!	!	!	!	!	!	!	!	!	!	!	!	!	!	!	!	!	!	!	!	!	!	!	!
!	!	!LO:DY:b:color=red	!	!	!	!	!LO:TX:b:i:t=vox	!	!	!	!	!	!	!	!	!	!	!	!	!	!	!	!	!	!	!	!	!	!	!	!	!
8r	.	p	8r	.	(16b\LL	.	(16gg\LL	.	.	.	.	16g\LL)	.	.	.	.	.	.	.	.	.	.	.	.	.	.	.	.	.	.	.	.
!	!	!	!	!	!	!	!	!LO:DY:b:t=pia:color=red	!	!	!	!	!	!	!	!	!	!	!	!	!	!	!	!	!	!	!	!	!	!	!	!
.	.	.	.	.	16a\)	.	16ff#X\	p	.	.	.	16f#X\JJ	.	.	.	.	.	.	.	.	.	.	.	.	.	.	.	.	.	.	.	.
8GG/	.	.	8g\	.	(16cc\	.	16ee\	.	.	.	.	16e\LL	-gnus	.	.	.	.	.	.	.	.	.	.	.	.	.	.	.	.	.	.	.
.	.	.	.	.	16b\JJ)	.	16dd\JJ)	.	.	.	.	16d\JJ	.	.	.	.	.	.	.	.	.	.	.	.	.	.	.	.	.	.	.	.
!	!	!	!	!	!	!	!	!	!	!	!	!LO:LB:g=original	!	!	!	!	!	!	!	!	!	!	!	!	!	!	!	!	!	!	!	!
8r	.	.	8r	.	16b\LL	.	(16dd\LL	.	.	.	.	8c\	De-	.	.	.	.	.	.	.	.	.	.	.	.	.	.	.	.	.	.	.
.	.	.	.	.	16a\JJ	.	16cc\JJ)	.	.	.	.	.	.	.	.	.	.	.	.	.	.	.	.	.	.	.	.	.	.	.	.	.
8D\L	7 5	.	4d\	.	4a/	.	4cc\	.	.	.	.	4c\	-i	.	.	.	.	.	.	.	.	.	.	.	.	.	.	.	.	.	.	.
8F#X\	.	.	.	.	.	.	.	.	.	.	.	.	.	.	.	.	.	.	.	.	.	.	.	.	.	.	.	.	.	.	.	.
!	!	!	!	!	!LO:N:vis=8	!	!	!	!	!	!	!	!	!	!	!	!	!	!	!	!	!	!	!	!	!	!	!	!	!	!	!
8G\J	3	.	8d\	.	16g/	.	8b\	.	.	.	.	8B\	qui	.	.	.	.	.	.	.	.	.	.	.	.	.	.	.	.	.	.	.
!	!	!	!	!	!LO:N:vis=8	!	!	!	!	!	!	!	!	!	!	!	!	!	!	!	!	!	!	!	!	!	!	!	!	!	!	!
.	.	.	.	.	16r	.	.	.	.	.	.	.	.	.	.	.	.	.	.	.	.	.	.	.	.	.	.	.	.	.	.	.
!LO:LB:g=original	!	!	!	!	!	!	!	!	!	!	!	!	!	!	!	!	!	!	!	!	!	!	!	!	!	!	!	!	!	!	!	!
=14	=14	=14	=14	=14	=14	=14	=14	=14	=14	=14	=14	=14	=14	=14	=14	=14	=14	=14	=14	=14	=14	=14	=14	=14	=14	=14	=14	=14	=14	=14	=14	=14
8C/L	.	.	8c/L	.	8e/L	.	(16b\LL	.	.	.	.	16B\LL	tol-	.	.	.	.	.	.	.	.	.	.	.	.	.	.	.	.	.	.	.
.	.	.	.	.	.	.	16a\JJ)	.	.	.	.	16A\JJ	.	.	.	.	.	.	.	.	.	.	.	.	.	.	.	.	.	.	.	.
8AA/	.	.	8A/	.	16e/L	.	(32dd\LLL	.	.	.	.	32c\LLL	.	.	.	.	.	.	.	.	.	.	.	.	.	.	.	.	.	.	.	.
.	.	.	.	.	.	.	32cc\	.	.	.	.	32B\	.	.	.	.	.	.	.	.	.	.	.	.	.	.	.	.	.	.	.	.
.	.	.	.	.	32d/L	.	32b\	.	.	.	.	32A\	.	.	.	.	.	.	.	.	.	.	.	.	.	.	.	.	.	.	.	.
.	.	.	.	.	32c/JJJ	.	32a\JJJ)	.	.	.	.	32G\JJJ	.	.	.	.	.	.	.	.	.	.	.	.	.	.	.	.	.	.	.	.
8D/	.	.	8d/	.	8B/L	.	8g/L	.	.	.	.	8G/	-lis	.	.	.	.	.	.	.	.	.	.	.	.	.	.	.	.	.	.	.
8DD/J	#	.	8d/J	.	8A/J	.	8f#X/J	.	.	.	.	8F#X/	pec-	.	.	.	.	.	.	.	.	.	.	.	.	.	.	.	.	.	.	.
4GG/	.	.	4G/ 4d	.	4B/	.	(16g/LL	.	.	.	.	16G/LL	-ca-	.	.	.	.	.	.	.	.	.	.	.	.	.	.	.	.	.	.	.
.	.	.	.	.	.	.	16d/)	.	.	.	.	16D/	.	.	.	.	.	.	.	.	.	.	.	.	.	.	.	.	.	.	.	.
.	.	.	.	.	.	.	(16b/	.	.	.	.	16B/	.	.	.	.	.	.	.	.	.	.	.	.	.	.	.	.	.	.	.	.
.	.	.	.	.	.	.	16g/JJ)	.	.	.	.	16G/JJ	.	.	.	.	.	.	.	.	.	.	.	.	.	.	.	.	.	.	.	.
8r	.	.	8r	.	8r	.	(16dd\LL	.	.	.	.	16d\LL	.	.	.	.	.	.	.	.	.	.	.	.	.	.	.	.	.	.	.	.
.	.	.	.	.	.	.	16b\)	.	.	.	.	16B\JJ	.	.	.	.	.	.	.	.	.	.	.	.	.	.	.	.	.	.	.	.
8GG/	.	.	8g\	.	(16b\LL	.	(16gg\	.	.	.	.	16g\LL	-ta	.	.	.	.	.	.	.	.	.	.	.	.	.	.	.	.	.	.	.
.	.	.	.	.	16cc\JJ)	.	16ee\JJ)	.	.	.	.	16e\JJ	.	.	.	.	.	.	.	.	.	.	.	.	.	.	.	.	.	.	.	.
=15	=15	=15	=15	=15	=15	=15	=15	=15	=15	=15	=15	=15	=15	=15	=15	=15	=15	=15	=15	=15	=15	=15	=15	=15	=15	=15	=15	=15	=15	=15	=15	=15
8C\L	.	.	8g\L	.	8b|\L	.	8dd\L	.	.	.	.	8d|\L	mun-	.	.	.	.	.	.	.	.	.	.	.	1r	.	1r	.	1r	.	1r	.
8DD/	.	.	8f#X\J	.	(32b\LL	.	(32dd\LL	.	.	.	.	32d\LL	.	.	.	.	.	.	.	.	.	.	.	.	.	.	.	.	.	.	.	.
.	.	.	.	.	32a\	.	32cc\	.	.	.	.	32c\	.	.	.	.	.	.	.	.	.	.	.	.	.	.	.	.	.	.	.	.
.	.	.	.	.	32g\	.	32b\	.	.	.	.	32B\	.	.	.	.	.	.	.	.	.	.	.	.	.	.	.	.	.	.	.	.
.	.	.	.	.	32a\JJJ)	.	32cc\JJJ)	.	.	.	.	32c\JJJ	.	.	.	.	.	.	.	.	.	.	.	.	.	.	.	.	.	.	.	.
.	.	.	.	.	.	.	8qqcc/	.	.	.	.	16qqc/	.	.	.	.	.	.	.	.	.	.	.	.	.	.	.	.	.	.	.	.
8GG/	.	.	8g\	.	8g/	.	8b\	.	.	.	.	8B\	-di	.	.	.	.	.	.	.	.	.	.	.	.	.	.	.	.	.	.	.
8BB/J	.	.	8r	.	8r	.	8r	.	.	.	.	8r	.	.	.	.	.	.	.	.	.	.	.	.	.	.	.	.	.	.	.	.
4C/	.	.	4c\	.	4e/	.	16.a\LL	.	.	.	.	16.A\LL	qui	.	.	.	.	.	.	.	.	.	.	.	.	.	.	.	.	.	.	.
.	.	.	.	.	.	.	32b\K	.	.	.	.	32B\JJk	.	.	.	.	.	.	.	.	.	.	.	.	.	.	.	.	.	.	.	.
.	.	.	.	.	.	.	16.cc\	.	.	.	.	16.c\LL	tol-	.	.	.	.	.	.	.	.	.	.	.	.	.	.	.	.	.	.	.
.	.	.	.	.	.	.	32dd\JJk	.	.	.	.	32d\JJk	.	.	.	.	.	.	.	.	.	.	.	.	.	.	.	.	.	.	.	.
8r	.	.	8r	.	8r	.	16.ee\LL	.	.	.	.	16.e\LL	-lis	.	.	.	.	.	.	.	.	.	.	.	.	.	.	.	.	.	.	.
.	.	.	.	.	.	.	32cc\K	.	.	.	.	32c\JJk	.	.	.	.	.	.	.	.	.	.	.	.	.	.	.	.	.	.	.	.
8C/	.	.	8c\	.	8e/	.	16a\	.	.	.	.	16.A\LL	pec-	.	.	.	.	.	.	.	.	.	.	.	.	.	.	.	.	.	.	.
.	.	.	.	.	.	.	16g\JJ	.	.	.	.	.	.	.	.	.	.	.	.	.	.	.	.	.	.	.	.	.	.	.	.	.
.	.	.	.	.	.	.	.	.	.	.	.	32G\JJk	.	.	.	.	.	.	.	.	.	.	.	.	.	.	.	.	.	.	.	.
=16	=16	=16	=16	=16	=16	=16	=16	=16	=16	=16	=16	=16	=16	=16	=16	=16	=16	=16	=16	=16	=16	=16	=16	=16	=16	=16	=16	=16	=16	=16	=16	=16
!	!	!	!	!	!	!	!	!	!	!	!	!	!	!	!	!	!	!	!	!	!	!	!	!	!	!	!	!LO:DY:b:color=red	!	!	!	!LO:DY:b:color=red
8D/L	.	.	8A/L	.	8c/L	.	8f#X/L	.	.	.	.	8F#X/	-ca-	.	.	.	.	.	.	.	.	.	.	.	2r	.	2r	f	2r	.	2r	f
8GG/J	.	.	8G/	.	8B/J	.	8g/J	.	.	.	.	8G/	-ta	.	.	.	.	.	.	.	.	.	.	.	.	.	.	.	.	.	.	.
!	!	!	!	!	!	!	!	!	!	!	!	!LO:LB:g=original	!	!	!	!	!	!	!	!	!	!	!	!	!	!	!	!	!	!	!	!
!	!	!	!	!	!	!	!	!	!	!	!	!LO:TX:t=P:problem:ucięta strona	!	!	!	!	!	!	!	!	!	!	!	!	!	!	!	!	!	!	!	!
8F#X\L	.	.	8F#X/	.	(16b/LL	.	(16dd\LL	.	.	.	.	8ryy	.	.	.	.	.	.	.	.	.	.	.	.	.	.	.	.	.	.	.	.
.	.	.	.	.	16a/)	.	16cc\)	.	.	.	.	.	.	.	.	.	.	.	.	.	.	.	.	.	.	.	.	.	.	.	.	.
8G\J	.	.	8G/J	.	(16a/	.	(16cc\	.	.	.	.	16c\	ca-	.	.	.	.	.	.	.	.	.	.	.	.	.	.	.	.	.	.	.
.	.	.	.	.	16g/JJ)	.	16b\JJ)	.	.	.	.	16B\	-ta	.	.	.	.	.	.	.	.	.	.	.	.	.	.	.	.	.	.	.
!LO:TX:t=P:problem:mixed beam	!	!	!	!	!LO:LB:g=original	!	!	!	!	!	!	!	!	!	!	!	!	!	!	!	!	!	!	!	!	!	!	!	!	!LO:DY:b:t=fort:color=red	!	!
8D\L	.	.	8d\L	.	8g/L	.	8b\L	.	.	.	.	8B\	mun-	.	.	.	.	.	.	.	.	.	.	.	4r	.	4r	.	4r	f	4r	.
!	!	!	!e	!LO:DY:b:t=forto:color=red	!	!	!	!	!	!	!	!	!	!	!	!	!	!	!	!	!	!	!	!	!	!	!	!	!	!	!	!
8DD/J	#	.	8d\	f	8f#X/J	.	8a\J	.	.	.	.	8A\	-di	.	.	.	.	.	.	.	.	.	.	.	.	.	.	.	.	.	.	.
*clefC1	*	*	*	*	*	*	*	*	*	*	*	*	*	*	*	*	*	*	*	*	*	*	*	*	*	*	*	*	*	*	*	*
!LO:TX:b:t=Tutti	!	!	!	!	!	!	!	!	!	!	!	!	!	!	!	!	!	!	!	!	!	!	!	!	!	!LO:DY:a:t=for:color=red	!	!	!	!	!	!
8g|\L	.	.	8g|\	.	4r	.	4r	.	.	.	.	4r	.	.	.	.	.	.	.	.	.	.	.	.	8G/L	f	8g|/L	.	8g|/L	.	8g|/L	.
8g|\J	.	.	8g|\J	.	.	.	.	.	.	.	.	.	.	.	.	.	.	.	.	.	.	.	.	.	8G/J	.	8g|/J	.	8g|/J	.	8g|/J	.
*clefF4	*	*	*	*	*	*	*	*	*	*	*	*	*	*	*	*	*	*	*	*	*	*	*	*	*	*	*	*	*	*	*	*
!	!	!	!LO:LB:g=original	!	!	!	!LO:LB:g=original	!	!	!	!	!	!	!	!	!	!	!	!	!	!	!	!	!	!	!	!	!	!	!	!	!
=17	=17	=17	=17	=17	=17	=17	=17	=17	=17	=17	=17	=17	=17	=17	=17	=17	=17	=17	=17	=17	=17	=17	=17	=17	=17	=17	=17	=17	=17	=17	=17	=17
!	!	!LO:DY:b:t=fort:color=red	!	!	!	!LO:DY:b:t=forto:color=red	!	!LO:DY:b:t=forto:color=red	!	!	!LO:DY:b:color=red	!	!	!LO:DY:b:t=for:color=red	!	!	!LO:DY:b:t=forto:color=red	!	!	!LO:DY:b:color=red	!	!	!	!	!	!	!	!	!	!	!	!
8GG/	7	f	(16B\LL	.	16r	f	16r	f	4B\	Mi-	f	4d\	mi-	f	4g\	Mi-	f	4ffn\	Mi-	f	00r	.	00r	.	4g/	.	4dd\	.	4b\	.	4ffn\	.
.	.	.	16d\	.	16dd|\LL	.	16ffn|\LL	.	.	.	.	.	.	.	.	.	.	.	.	.	.	.	.	.	.	.	.	.	.	.	.	.
8r	.	.	16B\)	.	(16dd\	.	(16ff\	.	.	.	.	.	.	.	.	.	.	.	.	.	.	.	.	.	.	.	.	.	.	.	.	.
.	.	.	16d\JJ	.	16b\JJ)	.	16dd\JJ)	.	.	.	.	.	.	.	.	.	.	.	.	.	.	.	.	.	.	.	.	.	.	.	.	.
8C/	.	.	(16c\LL	.	16r	.	16r	.	4c\	-ſe-	.	4c\	-se-	.	4g\	-se-	.	4ee\	-se-	.	.	.	.	.	4cc\	.	4ee\	.	4cc\	.	4ee\	.
!	!	!	!	!	!LO:TX:t=P:problem:mixed beam	!	!	!	!	!	!	!	!	!	!	!	!	!	!	!	!	!	!	!	!	!	!	!	!	!	!	!
.	.	.	16e\	.	16cc|\LL	.	16ee|\LL	.	.	.	.	.	.	.	.	.	.	.	.	.	.	.	.	.	.	.	.	.	.	.	.	.
8r	.	.	16c\	.	(16cc\	.	(16ee\	.	.	.	.	.	.	.	.	.	.	.	.	.	.	.	.	.	.	.	.	.	.	.	.	.
.	.	.	16e\JJ)	.	16e/JJ)	.	16cc\JJ)	.	.	.	.	.	.	.	.	.	.	.	.	.	.	.	.	.	.	.	.	.	.	.	.	.
8GG/	.	.	(16d\LL	.	16r	.	16r	.	4G\	-re-	.	4d\	-re-	.	4g\	-re-	.	4b\	-re-	.	.	.	.	.	4g/	.	4dd\	.	4b\	.	4dd\	.
.	.	.	16f\	.	16d|/LL	.	16b|\LL	.	.	.	.	.	.	.	.	.	.	.	.	.	.	.	.	.	.	.	.	.	.	.	.	.
8r	.	.	16d\	.	(16d/	.	(16b\	.	.	.	.	.	.	.	.	.	.	.	.	.	.	.	.	.	.	.	.	.	.	.	.	.
.	.	.	16f\JJ)	.	16f/JJ)	.	16dd\JJ)	.	.	.	.	.	.	.	.	.	.	.	.	.	.	.	.	.	.	.	.	.	.	.	.	.
8CC/	.	.	(16e\LL	.	16r	.	16r	.	4C/	-re	.	4e\	-re	.	4g\	-re	.	4cc\	-re	.	.	.	.	.	4e/	.	4cc\	.	4cc\	.	4cc\	.
.	.	.	16g\	.	16e|/LL	.	16cc|\LL	.	.	.	.	.	.	.	.	.	.	.	.	.	.	.	.	.	.	.	.	.	.	.	.	.
8r	.	.	16e\	.	(16e/	.	(16cc\	.	.	.	.	.	.	.	.	.	.	.	.	.	.	.	.	.	.	.	.	.	.	.	.	.
!	!	!	!	!LO:DY:b:t=pia:color=red	!	!	!	!	!	!	!	!	!	!	!	!	!	!	!	!	!	!	!	!	!	!	!	!	!	!	!	!
.	.	.	16g\JJ)	p	16cc/JJ)	.	16ee\JJ)	.	.	.	.	.	.	.	.	.	.	.	.	.	.	.	.	.	.	.	.	.	.	.	.	.
=18	=18	=18	=18	=18	=18	=18	=18	=18	=18	=18	=18	=18	=18	=18	=18	=18	=18	=18	=18	=18	=18	=18	=18	=18	=18	=18	=18	=18	=18	=18	=18	=18
*	*	*	*	*	*	*	*	*	*	*ij	*	*	*ij	*	*	*ij	*	*	*ij	*	*	*	*	*	*	*	*	*	*	*	*	*
!	!	!LO:DY:b:t=pia:color=red	!	!	!	!LO:DY:b:t=pia:color=red	!	!	!	!	!LO:DY:b:color=red	!	!	!LO:DY:b:t=pia:color=red	!	!	!LO:DY:b:t=pia:color=red	!	!	!LO:DY:b:color=red	!	!	!	!	!	!LO:DY:b:t=pia:color=red	!	!LO:DY:b:t=pia:color=red	!	!LO:DY:b:color=red	!	!LO:DY:b:color=red
8GG/	7	p	(16B\LL	.	16r	p	16r	.	4B\	Mi-	p	4d\	mi-	p	4g\	Mi-	p	4ff\	Mi-	p	.	.	.	.	4g/	p	4dd\	p	4b\	p	4ff\	p
!	!	!	!	!	!	!	!	!LO:DY:b:t=pia:color=red	!	!	!	!	!	!	!	!	!	!	!	!	!	!	!	!	!	!	!	!	!	!	!	!
.	.	.	16d\	.	16dd|\LL	.	16ff|\LL	p	.	.	.	.	.	.	.	.	.	.	.	.	.	.	.	.	.	.	.	.	.	.	.	.
8r	.	.	16B\	.	(16dd\	.	(16ff\	.	.	.	.	.	.	.	.	.	.	.	.	.	.	.	.	.	.	.	.	.	.	.	.	.
.	.	.	16d\JJ)	.	16b\JJ)	.	16dd\JJ)	.	.	.	.	.	.	.	.	.	.	.	.	.	.	.	.	.	.	.	.	.	.	.	.	.
8C/	.	.	(16c\LL	.	16r	.	16r	.	4c\	-ſe-	.	4c\	-se-	.	4g\	-se-	.	4ee\	-se-	.	.	.	.	.	4cc\	.	4ee\	.	4cc\	.	4ee\	.
!	!	!	!	!	!LO:TX:t=P:problem:mixed beam	!	!	!	!	!	!	!	!	!	!	!	!	!	!	!	!	!	!	!	!	!	!	!	!	!	!	!
.	.	.	16e\	.	16cc|\LL	.	16ee|\LL	.	.	.	.	.	.	.	.	.	.	.	.	.	.	.	.	.	.	.	.	.	.	.	.	.
8r	.	.	16c\	.	(16cc\	.	(16ee\	.	.	.	.	.	.	.	.	.	.	.	.	.	.	.	.	.	.	.	.	.	.	.	.	.
.	.	.	16e\JJ)	.	16e/JJ)	.	16cc\JJ)	.	.	.	.	.	.	.	.	.	.	.	.	.	.	.	.	.	.	.	.	.	.	.	.	.
!LO:LB:g=original	!	!	!	!	!	!	!	!	!	!	!	!	!	!	!	!	!	!	!	!	!	!	!	!	!	!	!	!	!	!	!	!
8G\	.	.	(16d\LL	.	16r	.	16r	.	4G\	-re-	.	4B\	-re-	.	4g\	-re-	.	4b\	-re-	.	.	.	.	.	4g/	.	4dd\	.	4b\	.	4dd\	.
.	.	.	16f\	.	16dd|\LL	.	16bb|\LL	.	.	.	.	.	.	.	.	.	.	.	.	.	.	.	.	.	.	.	.	.	.	.	.	.
8r	.	.	16d\	.	(16dd\	.	(16bb\	.	.	.	.	.	.	.	.	.	.	.	.	.	.	.	.	.	.	.	.	.	.	.	.	.
.	.	.	16f\JJ)	.	16ff\JJ)	.	16gg\JJ)	.	.	.	.	.	.	.	.	.	.	.	.	.	.	.	.	.	.	.	.	.	.	.	.	.
8C/	.	.	(16e\LL	.	16r	.	16r	.	4C/	-re	.	4c\	-re	.	4g\	-re	.	4cc\	-re	.	.	.	.	.	4e/	.	4cc\	.	4g/	.	4cc\	.
.	.	.	16g\	.	16ee|\LL	.	16ccc|\LL	.	.	.	.	.	.	.	.	.	.	.	.	.	.	.	.	.	.	.	.	.	.	.	.	.
8r	.	.	16e\	.	(16ee\	.	(16gg\	.	.	.	.	.	.	.	.	.	.	.	.	.	.	.	.	.	.	.	.	.	.	.	.	.
.	.	.	16g\JJ)	.	16cc\JJ)	.	16ee\JJ)	.	.	.	.	.	.	.	.	.	.	.	.	.	.	.	.	.	.	.	.	.	.	.	.	.
*	*	*	*	*	*	*	*	*	*	*	*	*	*	*	*	*Xij	*	*	*Xij	*	*	*	*	*	*	*	*	*	*	*	*	*
=19	=19	=19	=19	=19	=19	=19	=19	=19	=19	=19	=19	=19	=19	=19	=19	=19	=19	=19	=19	=19	=19	=19	=19	=19	=19	=19	=19	=19	=19	=19	=19	=19
!	!	!LO:DY:b:t=forto:color=red	!LO:TUP:a:problem:klamra łukowa,kropka zamiast numeru	!LO:DY:b:t=forto:color=red	!LO:TUP:a:problem:klamra łukowa	!LO:DY:a:t=forto:color=red	!	!LO:DY:b:t=forto:color=red	!	!	!LO:DY:b:color=red	!	!	!LO:DY:a:t=fort:color=red	!	!	!LO:DY:b:color=red	!	!	!LO:DY:b:color=red	!	!	!	!	!LO:TX:a:t=2	!	!LO:TX:a:t=2	!	!LO:DY:b:t=fort:color=red	!	!	!LO:DY:b:color=red
8r	.	f	24f\LL	f	24a/LL	f	24dd\LL	f	2F\	Mi-	f	2F/	mi-	f	2a\	mi-	f	2dd\	Mi-	f	.	.	.	.	0r	.	0r	.	2a/	f	2dd\	f
.	.	.	24f\	.	24a/	.	24dd\	.	.	.	.	.	.	.	.	.	.	.	.	.	.	.	.	.	.	.	.	.	.	.	.	.
.	.	.	24f\JJ	.	24a/JJ	.	24dd\JJ	.	.	.	.	.	.	.	.	.	.	.	.	.	.	.	.	.	.	.	.	.	.	.	.	.
!	!	!	!LO:TUP:a:problem:klamra łukowa,kropka zamiast numeru	!	!LO:TUP:a:problem:klamra łukowa	!	!	!	!	!	!	!	!	!	!	!	!	!	!	!	!	!	!	!	!	!	!	!	!	!	!	!
8F\L	6 3	.	24f\LL	.	24a/LL	.	24dd\LL	.	.	.	.	.	.	.	.	.	.	.	.	.	.	.	.	.	.	.	.	.	.	.	.	.
.	.	.	24f\	.	24a/	.	24dd\	.	.	.	.	.	.	.	.	.	.	.	.	.	.	.	.	.	.	.	.	.	.	.	.	.
.	.	.	24f\JJ	.	24a/JJ	.	24dd\JJ	.	.	.	.	.	.	.	.	.	.	.	.	.	.	.	.	.	.	.	.	.	.	.	.	.
*	*	*	*	*	*tremolo	*	*	*	*	*	*	*	*	*	*	*	*	*	*	*	*	*	*	*	*	*	*	*	*	*	*	*
!	!	!	!LO:LB:g=original	!	!LO:N:vis=4.	!	!	!	!	!	!	!	!	!	!	!	!	!	!	!	!	!	!	!	!	!	!	!	!	!	!	!
!	!	!	!LO:TUP:a:problem:klamra łukowa	!	!LO:TUP:a:problem:klamra łukowa	!	!	!	!	!	!	!	!	!	!	!	!	!	!	!	!	!	!	!	!	!	!	!	!	!	!	!
8F\	.	.	24f\LL	.	24a/LL	.	24dd\LL	.	.	.	.	.	.	.	.	.	.	.	.	.	.	.	.	.	.	.	.	.	.	.	.	.
.	.	.	24f\	.	24a/	.	24dd\	.	.	.	.	.	.	.	.	.	.	.	.	.	.	.	.	.	.	.	.	.	.	.	.	.
.	.	.	24f\JJ	.	24a/JJ	.	24dd\JJ	.	.	.	.	.	.	.	.	.	.	.	.	.	.	.	.	.	.	.	.	.	.	.	.	.
*	*	*	*tremolo	*	*	*	*	*	*	*	*	*	*	*	*	*	*	*	*	*	*	*	*	*	*	*	*	*	*	*	*	*
!	!	!	!LO:N:vis=4.	!	!LO:TUP:a:problem:klamra łukowa	!	!	!	!	!	!	!	!	!	!	!	!	!	!	!	!	!	!	!	!	!	!	!	!	!	!	!
!	!	!	!LO:TUP:a:problem:klamra łukowa	!	!LO:N:vis=4.	!	!	!	!	!	!	!	!	!	!	!	!	!	!	!	!	!	!	!	!	!	!	!	!	!	!	!
8F\J	.	.	24f\LL	.	24a/LL	.	24dd\LL	.	.	.	.	.	.	.	.	.	.	.	.	.	.	.	.	.	.	.	.	.	.	.	.	.
.	.	.	24f\	.	24a/	.	24dd\	.	.	.	.	.	.	.	.	.	.	.	.	.	.	.	.	.	.	.	.	.	.	.	.	.
.	.	.	24f\JJ	.	24a/JJ	.	24dd\JJ	.	.	.	.	.	.	.	.	.	.	.	.	.	.	.	.	.	.	.	.	.	.	.	.	.
!	!	!	!LO:N:vis=4.	!	!LO:N:vis=4.	!	!	!	!	!	!	!	!	!	!	!	!	!	!	!	!	!	!	!	!	!	!	!	!	!	!	!
!	!	!	!LO:TUP:a:problem:klamra łukowa,kropka zamiast numeru	!	!LO:TUP:a:problem:klamra łukowa	!	!	!	!	!	!	!	!	!	!	!	!	!	!	!	!	!	!	!	!	!	!	!	!	!	!	!
8r	.	.	24f#X\LL	.	24a/LL	.	24ee-X\LL	.	2F#X\	-ſe-	.	2F#X/	-se-	.	2a\	-se-	.	2ee-X\	-se-	.	.	.	.	.	.	.	.	.	2a/	.	2ee-X\	.
.	.	.	24f#X\	.	24a/	.	24ee-\	.	.	.	.	.	.	.	.	.	.	.	.	.	.	.	.	.	.	.	.	.	.	.	.	.
.	.	.	24f#X\JJ	.	24a/JJ	.	24ee-\JJ	.	.	.	.	.	.	.	.	.	.	.	.	.	.	.	.	.	.	.	.	.	.	.	.	.
!	!	!	!LO:N:vis=4.	!	!LO:N:vis=4.	!	!	!	!	!	!	!	!	!	!	!	!	!	!	!	!	!	!	!	!	!	!	!	!	!	!	!
!	!	!	!LO:TUP:a:problem:klamra łukowa,kropka zamiast numeru	!	!LO:TUP:a:problem:klamra łukowa	!	!	!	!	!	!	!	!	!	!	!	!	!	!	!	!	!	!	!	!	!	!	!	!	!	!	!
8F#X\L	-7 3	.	24f#\LL	.	24a/LL	.	24ee-\LL	.	.	.	.	.	.	.	.	.	.	.	.	.	.	.	.	.	.	.	.	.	.	.	.	.
.	.	.	24f#\	.	24a/	.	24ee-\	.	.	.	.	.	.	.	.	.	.	.	.	.	.	.	.	.	.	.	.	.	.	.	.	.
.	.	.	24f#\JJ	.	24a/JJ	.	24ee-\JJ	.	.	.	.	.	.	.	.	.	.	.	.	.	.	.	.	.	.	.	.	.	.	.	.	.
!	!	!	!LO:N:vis=4.	!	!LO:N:vis=4.	!	!	!	!	!	!	!	!	!	!	!	!	!	!	!	!	!	!	!	!	!	!	!	!	!	!	!
!	!	!	!LO:TUP:a:problem:klamra łukowa,kropka zamiast numeru	!	!LO:TUP:a:problem:klamra łukowa	!	!LO:LB:g=original	!	!	!	!	!	!	!	!	!	!	!	!	!	!	!	!	!	!	!	!	!	!	!	!	!
8F#\	.	.	24f#\LL	.	24a/LL	.	24ee-X\LL	.	.	.	.	.	.	.	.	.	.	.	.	.	.	.	.	.	.	.	.	.	.	.	.	.
.	.	.	24f#\	.	24a/	.	24ee-\	.	.	.	.	.	.	.	.	.	.	.	.	.	.	.	.	.	.	.	.	.	.	.	.	.
.	.	.	24f#\JJ	.	24a/JJ	.	24ee-\JJ	.	.	.	.	.	.	.	.	.	.	.	.	.	.	.	.	.	.	.	.	.	.	.	.	.
!	!	!	!LO:N:vis=4.	!	!LO:TUP:a:problem:klamra łukowa	!	!	!	!	!	!	!	!	!	!	!	!	!	!	!	!	!	!	!	!	!	!	!	!	!	!	!
!	!	!	!LO:TUP:a:problem:klamra łukowa,kropka zamiast numeru	!	!LO:N:vis=4.	!	!	!	!	!	!	!	!	!	!	!	!	!	!	!	!	!	!	!	!	!	!	!	!	!	!	!
8F#\J	.	.	24f#\LL	.	24a/LL	.	24ee-\LL	.	.	.	.	.	.	.	.	.	.	.	.	.	.	.	.	.	.	.	.	.	.	.	.	.
.	.	.	24f#\	.	24a/	.	24ee-\	.	.	.	.	.	.	.	.	.	.	.	.	.	.	.	.	.	.	.	.	.	.	.	.	.
.	.	.	24f#\JJ	.	24a/JJ	.	24ee-\JJ	.	.	.	.	.	.	.	.	.	.	.	.	.	.	.	.	.	.	.	.	.	.	.	.	.
*	*	*	*	*	*Xtremolo	*	*	*	*	*	*	*	*	*	*	*	*	*	*	*	*	*	*	*	*	*	*	*	*	*	*	*
!	!	!	!	!	!LO:LB:g=original	!	!	!	!	!	!	!	!	!	!	!	!	!	!	!	!	!	!	!	!	!	!	!	!	!	!	!
=20	=20	=20	=20	=20	=20	=20	=20	=20	=20	=20	=20	=20	=20	=20	=20	=20	=20	=20	=20	=20	=20	=20	=20	=20	=20	=20	=20	=20	=20	=20	=20	=20
!	!	!	!LO:N:vis=4.	!	!	!	!	!	!	!	!	!	!	!	!	!	!	!	!	!	!	!	!	!	!	!	!	!	!	!	!	!
!	!	!	!LO:TUP:a:problem:klamra łukowa,kropka zamiast numeru	!	!LO:TUP:a:problem:klamra łukowa	!	!	!	!	!	!	!	!	!	!	!	!	!	!	!	!	!	!	!	!	!	!	!	!	!	!	!
8r	.	.	24g\LL	.	24b\LL	.	24een\LL	.	2G\	-re-	.	2G/	-re-	.	2b-X\	-re-	.	2een\	-re-	.	.	.	.	.	.	.	.	.	2b-X\	.	2een\	.
.	.	.	24g\	.	24b\	.	24ee\	.	.	.	.	.	.	.	.	.	.	.	.	.	.	.	.	.	.	.	.	.	.	.	.	.
.	.	.	24g\JJ	.	24b\JJ	.	24ee\JJ	.	.	.	.	.	.	.	.	.	.	.	.	.	.	.	.	.	.	.	.	.	.	.	.	.
*	*	*	*	*	*tremolo	*	*	*	*	*	*	*	*	*	*	*	*	*	*	*	*	*	*	*	*	*	*	*	*	*	*	*
!	!	!	!LO:N:vis=4.	!	!LO:N:vis=4.	!	!	!	!	!	!	!	!	!	!	!	!	!	!	!	!	!	!	!	!	!	!	!	!	!	!	!
!	!	!	!LO:TUP:a:problem:klamra łukowa	!	!LO:TUP:a:problem:klamra łukowa	!	!	!	!	!	!	!	!	!	!	!	!	!	!	!	!	!	!	!	!	!	!	!	!	!	!	!
8G\L	n6 -	.	24g\LL	.	24b\LL	.	24ee\LL	.	.	.	.	.	.	.	.	.	.	.	.	.	.	.	.	.	.	.	.	.	.	.	.	.
.	.	.	24g\	.	24b\	.	24ee\	.	.	.	.	.	.	.	.	.	.	.	.	.	.	.	.	.	.	.	.	.	.	.	.	.
.	.	.	24g\JJ	.	24b\JJ	.	24ee\JJ	.	.	.	.	.	.	.	.	.	.	.	.	.	.	.	.	.	.	.	.	.	.	.	.	.
!	!	!	!LO:N:vis=4.	!	!	!	!	!	!	!	!	!	!	!	!	!	!	!	!	!	!	!	!	!	!	!	!	!	!	!	!	!
!	!	!	!LO:TUP:a:problem:klamra łukowa,kropka zamiast numeru	!	!LO:TUP:a:problem:klamra łukowa	!	!	!	!	!	!	!	!	!	!	!	!	!	!	!	!	!	!	!	!	!	!	!	!	!	!	!
8G\	.	.	24g\LL	.	24b\LL	.	24ee\LL	.	.	.	.	.	.	.	.	.	.	.	.	.	.	.	.	.	.	.	.	.	.	.	.	.
.	.	.	24g\	.	24b\	.	24ee\	.	.	.	.	.	.	.	.	.	.	.	.	.	.	.	.	.	.	.	.	.	.	.	.	.
.	.	.	24g\JJ	.	24b\JJ	.	24ee\JJ	.	.	.	.	.	.	.	.	.	.	.	.	.	.	.	.	.	.	.	.	.	.	.	.	.
!	!	!	!LO:N:vis=4.	!	!LO:N:vis=4.	!	!	!	!	!	!	!	!	!	!	!	!	!	!	!	!	!	!	!	!	!	!	!	!	!	!	!
!	!	!	!LO:TUP:a:problem:klamra łukowa,kropka zamiast numeru	!	!LO:TUP:a:problem:klamra łukowa	!	!	!	!	!	!	!	!	!	!	!	!	!	!	!	!	!	!	!	!	!	!	!	!	!	!	!
8G\J	.	.	24g\LL	.	24b\LL	.	24ee\LL	.	.	.	.	.	.	.	.	.	.	.	.	.	.	.	.	.	.	.	.	.	.	.	.	.
.	.	.	24g\	.	24b\	.	24ee\	.	.	.	.	.	.	.	.	.	.	.	.	.	.	.	.	.	.	.	.	.	.	.	.	.
.	.	.	24g\JJ	.	24b\JJ	.	24ee\JJ	.	.	.	.	.	.	.	.	.	.	.	.	.	.	.	.	.	.	.	.	.	.	.	.	.
!	!	!	!LO:N:vis=4.	!	!LO:N:vis=4.	!	!	!	!	!	!	!	!	!	!	!	!	!	!	!	!	!	!	!	!	!	!	!	!	!	!	!
!	!	!	!LO:TUP:a:problem:klamra łukowa,kropka zamiast numeru	!	!LO:TUP:a:problem:klamra łukowa	!	!	!	!	!	!	!	!	!	!	!	!	!	!	!	!	!	!	!	!	!	!	!	!	!	!	!
8A\L	6	.	24a\LL	.	24cc\LL	.	24ff\LL	.	8F\	-re	.	8A/	-re	.	8cc\	-re	.	8ff\	-re	.	.	.	.	.	.	.	.	.	4cc\	.	8ff\L	.
.	.	.	24a\	.	24cc\	.	24ff\	.	.	.	.	.	.	.	.	.	.	.	.	.	.	.	.	.	.	.	.	.	.	.	.	.
.	.	.	24a\JJ	.	24cc\JJ	.	24ff\JJ	.	.	.	.	.	.	.	.	.	.	.	.	.	.	.	.	.	.	.	.	.	.	.	.	.
!	!	!	!LO:N:vis=4.	!	!LO:N:vis=4.	!	!	!	!	!	!	!	!	!	!	!	!	!	!	!	!	!	!	!	!	!	!	!	!	!	!	!
!	!	!	!LO:TUP:a:problem:klamra łukowa,kropka zamiast numeru	!	!LO:TUP:a:problem:klamra łukowa	!	!	!	!	!	!	!	!	!	!	!	!	!	!	!	!	!	!	!	!	!	!	!	!	!	!	!
8E\	3	.	24e\LL	.	24cc\LL	.	24gg\LL	.	8r	.	.	8r	.	.	8r	.	.	8r	.	.	.	.	.	.	.	.	.	.	.	.	8gg\	.
.	.	.	24e\	.	24cc\	.	24gg\	.	.	.	.	.	.	.	.	.	.	.	.	.	.	.	.	.	.	.	.	.	.	.	.	.
.	.	.	24e\JJ	.	24cc\JJ	.	24gg\JJ	.	.	.	.	.	.	.	.	.	.	.	.	.	.	.	.	.	.	.	.	.	.	.	.	.
!	!	!	!LO:N:vis=4.	!	!LO:N:vis=4.	!	!	!	!	!	!	!	!	!	!	!	!	!	!	!	!	!	!	!	!	!	!	!	!	!	!	!
!	!	!	!LO:TUP:a:problem:klamra łukowa,kropka zamiast numeru	!	!LO:TUP:a:problem:klamra łukowa	!	!	!	!	!	!	!	!	!	!	!	!	!	!	!	!	!	!	!	!	!	!	!	!	!	!	!
8Fn\	3	.	24f\LL	.	24cc\LL	.	24aa\LL	.	4r	.	.	4r	.	.	4r	.	.	4r	.	.	.	.	.	.	.	.	.	.	8cc\L	.	8aa\	.
.	.	.	24f\	.	24cc\	.	24aa\	.	.	.	.	.	.	.	.	.	.	.	.	.	.	.	.	.	.	.	.	.	.	.	.	.
.	.	.	24f\JJ	.	24cc\JJ	.	24aa\JJ	.	.	.	.	.	.	.	.	.	.	.	.	.	.	.	.	.	.	.	.	.	.	.	.	.
!	!	!	!LO:N:vis=4.	!	!LO:N:vis=4.	!	!	!	!	!	!	!	!	!	!	!	!	!	!	!	!	!	!	!	!	!	!	!	!	!	!	!
!	!	!	!LO:TUP:a:problem:klamra łukowa,kropka zamiast numeru	!	!LO:TUP:a:problem:klamra łukowa	!	!	!	!	!	!	!	!	!	!	!	!	!	!	!	!	!	!	!	!	!	!	!	!	!	!	!
8D\J	6	.	24d\LL	.	24ff\LL	.	24bb\LL	.	.	.	.	.	.	.	.	.	.	.	.	.	.	.	.	.	.	.	.	.	8ff\J	.	8bb\J	.
.	.	.	24d\	.	24ff\	.	24bb\	.	.	.	.	.	.	.	.	.	.	.	.	.	.	.	.	.	.	.	.	.	.	.	.	.
.	.	.	24d\JJ	.	24ff\JJ	.	24bb\JJ	.	.	.	.	.	.	.	.	.	.	.	.	.	.	.	.	.	.	.	.	.	.	.	.	.
*	*	*	*	*	*Xtremolo	*	*	*	*	*Xij	*	*	*Xij	*	*	*	*	*	*	*	*	*	*	*	*	*	*	*	*	*	*	*
!	!	!	!	!	!	!	!	!	!LO:LB:g=original	!	!	!	!	!	!	!	!	!	!	!	!	!	!	!	!	!	!	!	!	!	!	!
=21	=21	=21	=21	=21	=21	=21	=21	=21	=21	=21	=21	=21	=21	=21	=21	=21	=21	=21	=21	=21	=21	=21	=21	=21	=21	=21	=21	=21	=21	=21	=21	=21
!	!	!	!LO:N:vis=4.	!	!	!	!	!	!	!	!	!	!	!	!	!	!	!	!	!	!	!	!	!	!	!	!	!	!	!	!	!
!LO:TX:t=P:problem:mixed beam	!	!	!LO:TUP:a:problem:klamra łukowa,kropka zamiast numeru	!	!LO:TUP:a:problem:klamra łukowa	!	!	!	!	!	!	!	!	!	!	!	!	!	!	!	!	!LO:DY:b:t=forto:color=red	!	!LO:DY:b:t=for:color=red	!	!LO:DY:b:color=red	!	!LO:DY:b:color=red	!	!	!	!
8C\L	6 3	.	24g\LL	.	24ee\LL	.	24ccc\LL	.	8E\L	no-	.	8c\L	no-	.	8g\L	no-	.	8ee\L	no-	.	2r	f	2r	f	8c/	f	8g/	f	8ee\L	.	8ccc\L	.
.	.	.	24g\	.	24dd\	.	24bb\	.	.	.	.	.	.	.	.	.	.	.	.	.	.	.	.	.	.	.	.	.	.	.	.	.
.	.	.	24g\JJ	.	24ee\JJ	.	24ccc\JJ	.	.	.	.	.	.	.	.	.	.	.	.	.	.	.	.	.	.	.	.	.	.	.	.	.
!	!	!	!LO:N:vis=4.	!	!	!	!	!	!	!	!	!	!	!	!	!	!	!	!	!	!	!	!	!	!	!	!	!	!	!	!	!
!	!	!	!LO:TUP:a:problem:klamra łukowa	!	!LO:TUP:a:problem:klamra łukowa	!	!	!	!	!	!	!LO:TUP:a:problem:klamra łukowa	!	!	!	!	!	!LO:TUP:a:problem:klamra łukowa, kropka zamiast numeru	!	!	!	!	!	!	!	!	!	!	!	!	!	!
8F\	6	.	24a\LL	.	24ff\LL	.	24aa\LL	.	8F\	.	.	24A\L	.	.	8a\	.	.	24ff\L	.	.	.	.	.	.	8r	.	8r	.	(16ff\L	.	16aa\L	.
.	.	.	24a\	.	24ee\	.	24gg\	.	.	.	.	24G\	.	.	.	.	.	24ee\	.	.	.	.	.	.	.	.	.	.	.	.	.	.
.	.	.	.	.	.	.	.	.	.	.	.	.	.	.	.	.	.	.	.	.	.	.	.	.	.	.	.	.	16dd\JJ)	.	16ff\JJ	.
.	.	.	24a\JJ	.	24dd\JJ	.	24ff\JJ	.	.	.	.	24F\JJ	.	.	.	.	.	24dd\JJ	.	.	.	.	.	.	.	.	.	.	.	.	.	.
*	*	*	*Xtremolo	*	*	*	*	*	*	*	*	*	*	*	*	*	*	*	*	*	*	*	*	*	*	*	*	*	*	*	*	*
8G\	4	.	8g\L	.	8cc|\L	.	8ee|\L	.	8G\J	.	.	8E/	.	.	8g\J	.	.	8cc\	.	.	.	.	.	.	8cc/L	.	8ee\L	.	8cc\L	.	8ee\L	.
8GG/J	n	.	8g\J	.	8b|\J	.	8dd|\J	.	8GG/	-bis	.	8D/	-bis	.	8g\	-bis	.	8b\	-bis	.	.	.	.	.	8g/J	.	8dd\J	.	8bn\J	.	8dd\J	.
!	!	!LO:DY:b:t=forto:color=red	!LO:TX:t=P:problem:mixed beam	!	!	!	!	!	!	!	!	!	!	!	!	!	!	!	!	!	!	!	!	!	!	!	!	!	!LO:LB:g=original	!	!	!
8C/	5 3	f	(16C/LL	.	16r	.	16r	.	4.C/	A-	.	4.c\	A-	.	4.e\	A-	.	4.g\	A-	.	4C/	.	4cc\	.	8c/	.	8cc\	.	2e/	.	2g/	.
.	.	.	16c\)	.	16e|/LL	.	16g|/LL	.	.	.	.	.	.	.	.	.	.	.	.	.	.	.	.	.	.	.	.	.	.	.	.	.
8r	.	.	16c|\	.	(16e/	.	(16g/	.	.	.	.	.	.	.	.	.	.	.	.	.	.	.	.	.	8r	.	8r	.	.	.	.	.
.	.	.	16c|\JJ	.	16c/JJ)	.	16e/JJ)	.	.	.	.	.	.	.	.	.	.	.	.	.	.	.	.	.	.	.	.	.	.	.	.	.
!LO:TX:b:t=Tutti	!	!	!LO:TX:t=P:problem:mixed beam	!	!	!	!	!	!	!	!	!	!	!	!	!	!	!	!	!	!	!	!	!	!	!	!	!	!	!	!	!
8C/	.	.	(16C/LL	.	16r	.	16r	.	.	.	.	.	.	.	.	.	.	.	.	.	4r	.	4r	.	8c/	.	8cc\	.	.	.	.	.
.	.	.	16c\)	.	16e|/LL	.	16cc|\LL	.	.	.	.	.	.	.	.	.	.	.	.	.	.	.	.	.	.	.	.	.	.	.	.	.
!	!	!	!	!	!	!	!	!	!	!	!	!LO:TX:b:t=volti	!	!	!	!	!	!	!	!	!	!	!	!	!	!	!	!	!	!	!	!
8r	.	.	16c|\	.	(16e/	.	(16cc\	.	8C/	-gnus	.	8c\	-gnus	.	8e\	-gnus	.	8g\	-gnus	.	.	.	.	.	8r	.	8r	.	.	.	.	.
.	.	.	16c|\JJ	.	16e/JJ)	.	16g\JJ)	.	.	.	.	.	.	.	.	.	.	.	.	.	.	.	.	.	.	.	.	.	.	.	.	.
!	!	!	!LO:LB:g=original	!	!	!	!	!	!	!	!	!LO:LB:g=original	!	!	!	!	!	!	!	!	!	!	!	!	!	!	!	!	!	!	!	!
=22	=22	=22	=22	=22	=22	=22	=22	=22	=22	=22	=22	=22	=22	=22	=22	=22	=22	=22	=22	=22	=22	=22	=22	=22	=22	=22	=22	=22	=22	=22	=22	=22
8F\	.	.	(16F\LL	.	16r	.	16r	.	4F\	De-	.	4B\	De-	.	4f\	De-	.	4a\	De-	.	4C/	.	4cc\	.	2r	.	2r	.	(2f/	.	2a/	.
.	.	.	16c\)	.	16f|/LL	.	16a|/LL	.	.	.	.	.	.	.	.	.	.	.	.	.	.	.	.	.	.	.	.	.	.	.	.	.
8r	.	.	16c|\	.	(16f/	.	(16a/	.	.	.	.	.	.	.	.	.	.	.	.	.	.	.	.	.	.	.	.	.	.	.	.	.
.	.	.	16c|\JJ	.	16c/JJ)	.	16f/JJ)	.	.	.	.	.	.	.	.	.	.	.	.	.	.	.	.	.	.	.	.	.	.	.	.	.
!	!	!	!	!	!	!	!LO:LB:g=original	!	!	!	!	!	!	!	!	!	!	!	!	!	!	!	!	!	!	!	!	!	!	!	!	!
8F\	.	.	(16F\LL	.	16r	.	16r	.	8F\	-i	.	8B\	-i	.	8f\	-i	.	8a\	-i	.	4r	.	4r	.	.	.	.	.	.	.	.	.
.	.	.	16c\)	.	16a|/LL	.	16ff|\LL	.	.	.	.	.	.	.	.	.	.	.	.	.	.	.	.	.	.	.	.	.	.	.	.	.
8r	.	.	16c|\	.	(16a/	.	(16ff\	.	8F\	qui	.	8B\	qui	.	8f\	qui	.	8a\	qui	.	.	.	.	.	.	.	.	.	.	.	.	.
.	.	.	16c|\JJ	.	16f/JJ)	.	16dd\JJ)	.	.	.	.	.	.	.	.	.	.	.	.	.	.	.	.	.	.	.	.	.	.	.	.	.
!	!	!	!	!	!	!	!	!	!	!	!	!	!	!	!	!	!	!LO:LB:g=original	!	!	!	!	!	!	!	!	!	!	!	!	!LO:LB:g=original	!
8G\	.	.	8G/ 8d	.	16r	.	16r	.	4G\	tol-	.	8c\	tol-	.	8.g\L	tol-	.	8.b\L	tol-	.	8GG/L	.	8dd\L	.	4g/	.	4dd\	.	4g|/)	.	4b\	.
.	.	.	.	.	16g|/LL	.	16b|\LL	.	.	.	.	.	.	.	.	.	.	.	.	.	.	.	.	.	.	.	.	.	.	.	.	.
8r	.	.	8r	.	(16g/	.	(16b\	.	.	.	.	16c\	-lis	.	.	.	.	.	.	.	16GG/L	.	16dd\L	.	.	.	.	.	.	.	.	.
.	.	.	.	.	16a/JJ)	.	16cc\JJ)	.	.	.	.	16c\	pec-	.	16a\Jk	.	.	16cc\Jk	.	.	16GG/JJ	.	16dd\JJ	.	.	.	.	.	.	.	.	.
!	!	!	!LO:TX:t=P:problem:mixed beam	!	!	!	!	!	!	!	!	!	!	!	!	!	!	!	!	!	!	!	!	!	!	!	!	!	!	!	!	!
8GG/L	.	.	8G/L	.	(16b\LL	.	(16dd\LL	.	16G\	-lis	.	8B\	-ca-	.	16b\	-lis	.	16dd\	-lis	.	8GG/L	.	8dd\L	.	8g/L	.	8dd\L	.	8r	.	8r	.
.	.	.	.	.	16cc\)	.	16ee\)	.	16G\	pec-	.	.	.	.	16cc\	pec-	.	16ee\	pec-	.	.	.	.	.	.	.	.	.	.	.	.	.
8BB/J	.	.	16b\L	.	16dd|\	.	16ff|\	.	16G\	-ca-	.	8B\	-ta	.	16dd\	-ca-	.	16ff\	-ca-	.	8GG/J	.	8dd\J	.	16g/L	.	16dd\L	.	8dd\	.	8ff\	.
.	.	.	16b\JJ	.	16dd|\JJ	.	16ff|\JJ	.	16G\	-ta	.	.	.	.	16dd\	-ta	.	16ff\	-ta	.	.	.	.	.	16g/JJ	.	16dd\JJ	.	.	.	.	.
!	!	!	!	!	!	!	!	!	!	!	!	!	!	!	!LO:LB:g=original	!	!	!	!	!	!	!	!	!	!	!	!LO:LB:g=original	!	!	!	!	!
=23	=23	=23	=23	=23	=23	=23	=23	=23	=23	=23	=23	=23	=23	=23	=23	=23	=23	=23	=23	=23	=23	=23	=23	=23	=23	=23	=23	=23	=23	=23	=23	=23
8C/L	.	.	8g\L	.	32ee\LLL	.	(32gg\LLL	.	8G\	mun-	.	8B\	mun-	.	8dd\	mun-	.	32gg\LLL	mun-	.	8C/L	.	8dd\L	.	8g/L	.	8dd\L	.	8dd\L	.	(32gg\LLL	.
.	.	.	.	.	(32dd\	.	32ff\	.	.	.	.	.	.	.	.	.	.	32ff\	.	.	.	.	.	.	.	.	.	.	.	.	32ff\	.
.	.	.	.	.	32cc\	.	32ee\	.	.	.	.	.	.	.	.	.	.	32ee\	.	.	.	.	.	.	.	.	.	.	.	.	32ee\	.
.	.	.	.	.	32dd\JJ)	.	32ff\JJ)	.	.	.	.	.	.	.	.	.	.	32ff\JJJ	.	.	.	.	.	.	.	.	.	.	.	.	32ff\JJ)	.
!	!	!	!	!	!	!	!	!	!	!	!	!	!	!	!	!	!	!	!	!	!	!	!	!	!	!	!	!	!	!	!	!LO:DY:b:color=red
8CC/J	.	.	8g\J	.	8cc|\J	.	8ee|\J	.	8C,</	-di	.	8c\	-di	.	8cc\	-di	.	8ee\	-di	.	8C/J	.	8ee\J	.	8cc/J	.	8ee\J	.	8cc\J	.	8ee\J	ff
!	!	!	!	!	!LO:LB:g=original	!	!	!	!	!	!	!	!	!LO:DY:a:t=pia:color=red	!	!	!	!	!	!	!	!	!	!	!	!	!	!	!	!	!	!
8E\L	6	.	16e\LL	.	16r	.	16r	.	4E\	A-	.	4E/	qui	p	(4g\	A-	.	4cc\	A-	.	4r	.	4r	.	4r	.	4r	.	4g/	.	4cc\	.
!	!	!	!	!	!	!	!	!LO:DY:b:t=pia:color=red	!	!	!	!	!	!	!	!	!	!	!	!	!	!	!	!	!	!	!	!	!	!	!	!
.	.	.	16e\	.	16cc|\LL	.	16gg|\LL	p	.	.	.	.	.	.	.	.	.	.	.	.	.	.	.	.	.	.	.	.	.	.	.	.
8E\J	.	.	16e\	.	16cc|\	.	(16gg\	.	.	.	.	.	.	.	.	.	.	.	.	.	.	.	.	.	.	.	.	.	.	.	.	.
.	.	.	16e\JJ	.	16cc|\JJ	.	16ee\JJ)	.	.	.	.	.	.	.	.	.	.	.	.	.	.	.	.	.	.	.	.	.	.	.	.	.
!LO:LB:g=original	!	!	!	!	!	!	!	!	!	!	!	!	!	!	!	!	!	!	!	!	!	!	!	!	!LO:LB:g=original	!	!	!	!	!	!	!
8F\L	6 3	.	16f\LL	.	16r	.	16r	.	4F\	-gnus	.	4F/	tol-	.	8a\)	.	.	4dd\	-gnus	.	4r	.	4r	.	4r	.	4r	.	4a/	.	4dd\	.
.	.	.	16f\	.	(16a|/LL	.	16dd|\LL	.	.	.	.	.	.	.	.	.	.	.	.	.	.	.	.	.	.	.	.	.	.	.	.	.
8F\	.	.	16f\	.	16a|/	.	(16cc#X\	.	.	.	.	.	.	.	8a\	-gnus	.	.	.	.	.	.	.	.	.	.	.	.	.	.	.	.
.	.	.	16f\JJ	.	16a|/JJ)	.	16dd\JJ)	.	.	.	.	.	.	.	.	.	.	.	.	.	.	.	.	.	.	.	.	.	.	.	.	.
!	!	!	!	!	!	!	!	!LO:DY:b:color=red	!	!	!	!	!	!	!	!	!	!	!	!	!	!	!	!	!	!	!	!	!	!	!	!
8G\	7 3	.	16g\LL	.	16r	.	16r	f	4G\	De-	.	4G/	-lis	.	4b\	De-	.	4ff\	De-	.	4GG/	.	16dd\LL	.	4g/	.	4dd\	.	4b/	.	4ff\	.
.	.	.	16g\	.	16b|/LL	.	16ff|\LL	.	.	.	.	.	.	.	.	.	.	.	.	.	.	.	32dd\L	.	.	.	.	.	.	.	.	.
.	.	.	.	.	.	.	.	.	.	.	.	.	.	.	.	.	.	.	.	.	.	.	32dd\JJJ	.	.	.	.	.	.	.	.	.
8G\J	.	.	16g\	.	(16b/	.	(16ff\	.	.	.	.	.	.	.	.	.	.	.	.	.	.	.	16dd\LL	.	.	.	.	.	.	.	.	.
.	.	.	16g\JJ	.	16d/JJ)	.	16b\JJ)	.	.	.	.	.	.	.	.	.	.	.	.	.	.	.	16dd\JJ	.	.	.	.	.	.	.	.	.
=24	=24	=24	=24	=24	=24	=24	=24	=24	=24	=24	=24	=24	=24	=24	=24	=24	=24	=24	=24	=24	=24	=24	=24	=24	=24	=24	=24	=24	=24	=24	=24	=24
!	!	!	!	!	!	!	!	!	!	!	!LO:DY:b:t=pia:color=red	!	!	!	!	!	!LO:DY:b:color=red	!	!	!	!	!	!	!	!	!	!	!	!	!LO:DY:b:t=pia:color=red	!	!LO:DY:b:t=pia:color=red
8C\L	3	.	16c\LL	.	16r	.	16r	.	4c\	-i	p	(4c\	pec-	.	4cc\	-i	p	4ee\	-i	.	4C/	.	4ee\	.	4cc\	.	4ee\	.	4cc\	p	4ee\	p
.	.	.	16g\	.	16e|/LL	.	16cc|\LL	.	.	.	.	.	.	.	.	.	.	.	.	.	.	.	.	.	.	.	.	.	.	.	.	.
8C\	.	.	16g\	.	(16d/	.	(16bn\	.	.	.	.	.	.	.	.	.	.	.	.	.	.	.	.	.	.	.	.	.	.	.	.	.
.	.	.	16g\JJ	.	16e/JJ)	.	16cc\JJ)	.	.	.	.	.	.	.	.	.	.	.	.	.	.	.	.	.	.	.	.	.	.	.	.	.
!	!	!	!	!LO:DY:b:t=pia:color=red	!	!LO:DY:b:t=pia:color=red	!	!	!	!	!	!	!	!	!	!	!	!	!	!LO:DY:a:t=pia:color=red	!	!	!	!	!	!	!	!	!	!	!	!
8E\	6 3	.	16e\LL	p	16r	p	16r	.	4E\	qui	.	4E/)	.	.	4e\	qui	.	4cc\	qui	p	4r	.	4r	.	4r	.	4r	.	4g/	.	4cc\	.
!	!	!	!	!	!	!	!	!LO:DY:b:t=pia:color=red	!	!	!	!	!	!	!	!	!	!	!	!	!	!	!	!	!	!	!	!	!	!	!	!
.	.	.	16e\	.	16cc\LL	.	16gg|\LL	p	.	.	.	.	.	.	.	.	.	.	.	.	.	.	.	.	.	.	.	.	.	.	.	.
8E\J	.	.	16e\	.	16cc\	.	(16gg\	.	.	.	.	.	.	.	.	.	.	.	.	.	.	.	.	.	.	.	.	.	.	.	.	.
.	.	.	16e\JJ	.	16cc\JJ	.	16ee\JJ)	.	.	.	.	.	.	.	.	.	.	.	.	.	.	.	.	.	.	.	.	.	.	.	.	.
8F\L	6 3	.	16f\LL	.	16r	.	16r	.	4F\	tol-	.	4F/	-ca-	.	4f\	tol-	.	4dd\	tol-	.	4r	.	4r	.	4r	.	4r	.	4a/	.	4dd\	.
.	.	.	16f\	.	16a|/LL	.	16dd|\LL	.	.	.	.	.	.	.	.	.	.	.	.	.	.	.	.	.	.	.	.	.	.	.	.	.
8F\	.	.	16f\	.	16a|/	.	(16cc#X\	.	.	.	.	.	.	.	.	.	.	.	.	.	.	.	.	.	.	.	.	.	.	.	.	.
.	.	.	16f\JJ	.	16a|/JJ	.	16dd\JJ)	.	.	.	.	.	.	.	.	.	.	.	.	.	.	.	.	.	.	.	.	.	.	.	.	.
8G\	7 3	.	16g\LL	.	16r	.	16r	.	8G\	-lis	.	8G/L	-ta	.	8b\	-lis	.	8ff\	-lis	.	4GG/	.	16dd\LL	.	4g/	.	4dd\	.	4b/	.	8ff\L	.
.	.	.	16g\	.	16b|/LL	.	16ff|\LL	.	.	.	.	.	.	.	.	.	.	.	.	.	.	.	32dd\L	.	.	.	.	.	.	.	.	.
.	.	.	.	.	.	.	.	.	.	.	.	.	.	.	.	.	.	.	.	.	.	.	32dd\JJJ	.	.	.	.	.	.	.	.	.
8G\J	.	.	16g\	.	(16b/	.	(16ff\	.	8G\	pec-	.	8B/J	.	.	8g\	pec-	.	8b\	pec-	.	.	.	16dd\LL	.	.	.	.	.	.	.	8b\J	.
.	.	.	16g\JJ	.	16d/JJ)	.	16b\JJ)	.	.	.	.	.	.	.	.	.	.	.	.	.	.	.	16dd\JJ	.	.	.	.	.	.	.	.	.
!	!	!	!LO:LB:g=original	!	!	!	!LO:LB:g=original	!	!LO:LB:g=original	!	!	!	!	!	!	!	!	!	!	!	!	!	!LO:LB:g=original	!	!	!	!	!	!	!	!	!
=25	=25	=25	=25	=25	=25	=25	=25	=25	=25	=25	=25	=25	=25	=25	=25	=25	=25	=25	=25	=25	=25	=25	=25	=25	=25	=25	=25	=25	=25	=25	=25	=25
!	!	!	!	!LO:DY:b:t=forto:color=red	!	!	!	!LO:DY:b:t=forto:color=red	!	!	!LO:DY:a:t=forto:color=red	!	!	!LO:DY:a:color=red	!	!	!	!	!	!LO:DY:b:t=fort:color=red	!	!	!	!	!	!	!	!	!	!LO:DY:b:t=forto:color=red	!	!LO:DY:b:color=red
8C/L	.	.	8g\	f	8e/L	.	8ccn|\L	f	8C\L	-ca-	f	4c\	mun-	f	8e\	-ca-	.	8cc\L	-ca-	f	8C/L	.	8ee\L	.	4e/	.	4cc\	.	8cc\L	f	8cc\L	f
!	!	!	!	!	!	!	!	!	!	!	!	!	!	!	!	!	!LO:DY:b:t=fort:color=red	!	!	!	!	!	!	!	!	!	!	!	!	!	!	!
8c\	.	.	4g\	.	8cc\	.	8ee|\	.	8E\	.	.	.	.	.	4.g\	-ta	f	8ee\J	.	.	8C/	.	8ee\	.	.	.	.	.	8cc\	.	8ee\	.
8B\	.	.	.	.	8dd\	.	8ff|\	.	8G\	.	.	8d\L	-di	.	.	.	.	8ff\L	-ta	.	8GG/	.	8ff\	.	8g/L	.	8dd\L	.	8dd\	.	8ff\	.
8c\J	.	.	4g\	.	8cc\J	.	8ee|\J	.	8E\J	.	.	8c\J	.	.	.	.	.	8ee\J	.	.	8C/J	.	8ee\J	.	8cc/J	.	8ee\J	.	8cc\J	.	8ee\J	.
8G\L	.	.	.	.	8b\L	.	8dd|\L	.	8C/	-ta	.	8B\L	Do-	.	4g\	mun-	.	8dd\L	mun-	.	8GG/L	.	8dd\L	.	8g/L	.	8dd\L	.	8b\L	.	8dd\L	.
8c\	.	.	4g\	.	8cc\	.	8ee|\	.	8G\L	mun-	.	8c\J	.	.	.	.	.	8ee\	.	.	8C/	.	8ee\	.	8e/	.	8cc\	.	8cc\	.	8ee\	.
8B\	.	.	.	.	8dd\	.	8ff|\	.	8c\	.	.	8d\L	-na	.	4g\	-di	.	8ff\	.	.	8GG/	.	8ff\	.	8g/	.	8dd\	.	8dd\	.	8ff\	.
8c\J	.	.	8g\	.	8cc\J	.	8ee|\J	.	8G\J	.	.	8c\J	.	.	.	.	.	8ee\J	.	.	8C/J	.	8ee\J	.	8cc/J	.	8ee\J	.	8cc\J	.	8ee\J	.
!	!	!	!	!	!	!	!	!	!	!	!	!	!	!	!	!	!	!	!	!	!LO:LB:g=original	!	!	!	!	!	!	!	!	!	!	!
=26	=26	=26	=26	=26	=26	=26	=26	=26	=26	=26	=26	=26	=26	=26	=26	=26	=26	=26	=26	=26	=26	=26	=26	=26	=26	=26	=26	=26	=26	=26	=26	=26
4G\	.	.	4g\	.	4b\	.	(4dd\	.	4C/	-di	.	4B\	no-	.	4g\	Do-	.	4dd\	-di	.	4GG/	.	4dd\	.	4g/	.	4dd\	.	4b\	.	4dd\	.
8c\L	3	.	8g\L	.	(8cc\L	.	8ee\L	.	8c\	Do-	.	4c\	-bis	.	8g|\L	-na	.	8ee\	Do-	.	4r	.	4r	.	4r	.	4r	.	8cc\L	.	(8ee\L	.
8A\J	#	.	(8cc\J	.	8a\J)	.	8ff#X\J)	.	8A\	-na	.	.	.	.	8a|\J	.	.	8ff#X\	-na	.	.	.	.	.	.	.	.	.	8a\J	.	8ff#X\J)	.
!	!	!	!	!	!	!	!	!	!	!	!	!	!	!	!	!	!	!LO:LB:g=original	!	!	!	!	!	!	!	!	!	!	!	!	!	!
4G\	.	.	4dd\)	.	4b\	.	4gg\	.	8G\	no-	.	(4d\	pa-	.	8b\	no-	.	8gg\	no-	.	2r	.	2r	.	4r	.	4r	.	4b\	.	4gg\	.
.	.	.	.	.	.	.	.	.	8G\	-bis	.	.	.	.	8b\	-bis	.	8gg\	-bis	.	.	.	.	.	.	.	.	.	.	.	.	.
!LO:TX:b:t=pedal	!	!LO:DY:a:color=red	!	!LO:DY:a:color=red	!	!LO:DY:a:color=red	!	!LO:DY:a:color=red	!	!	!	!	!	!	!	!	!	!	!	!	!	!	!	!	!	!LO:DY:a:color=red	!	!LO:DY:a:color=red	!	!	!	!
8GG/L	.	pp	8d\L	pp	[8B/L	pp	8g/L	pp	4G\	Pa-	.	4c\)	.	.	4d\	Pa-	.	4g\	pa-	.	.	.	.	.	8G/L	pp	8g/L	pp	4r	.	4r	.
8GG/J	.	.	8d\J	.	8B/J]	.	8g/J	.	.	.	.	.	.	.	.	.	.	.	.	.	.	.	.	.	8G/J	.	8g/J	.	.	.	.	.
=27	=27	=27	=27	=27	=27	=27	=27	=27	=27	=27	=27	=27	=27	=27	=27	=27	=27	=27	=27	=27	=27	=27	=27	=27	=27	=27	=27	=27	=27	=27	=27	=27
*	*	*	*2\right	*	*	*	*	*	*	*	*	*	*	*	*	*	*	*	*	*	*	*	*	*	*	*	*	*	*	*	*	*
!	!	!	!	!	!	!	!	!	!	!	!	!	!	!	!	!	!	!	!	!	!LO:TX:a:t=1	!	!LO:TX:a:t=1	!	!	!	!	!	!	!	!LO:TX:a:t=1	!
2GG/	.	.	2d\	.	2B/	.	2g/	.	2G\	-cem	.	2B\	-cem	.	2d\	-cem	.	2g\	-cem	.	1r	.	1r	.	2G/	.	2g/	.	1r	.	1r	.
2r	.	.	2r	.	2r	.	2r	.	2r	.	.	2r	.	.	2r	.	.	2r	.	.	.	.	.	.	2r	.	2r	.	.	.	.	.
==	==	==	==	==	==	==	==	==	==	==	==	==	==	==	==	==	==	==	==	==	==	==	==	==	==	==	==	==	==	==	==	==
*-	*-	*-	*-	*-	*-	*-	*-	*-	*-	*-	*-	*-	*-	*-	*-	*-	*-	*-	*-	*-	*-	*-	*-	*-	*-	*-	*-	*-	*-	*-	*-	*-
!!!system-decoration: [(s1,s2)][(s3,s4,s5)][(s6)][(s7,s8,s9,s10)][(s11,s12,s13)]s14
!!!RDF**kern: | = vertical stroke
!!!RDF**kern: > = above
!!!RDF**kern: < = below
!!!ENC: Marcin Jachim
!!!END: 2020-10-28
!!!ENC: Jan Barakat
!!!END: 2022-06-15
